(loaded image: D:\Julius\Projekte-Julius\img2plot\input\familie.JPG)
(image_rotate: rotated 90 degrees to fit machines sweet spot)
(image_crop desired ratio of 0.77777785)
(image_crop old size: 3456 by 4608     ratio: 0.75)
(image_crop new size: 3456 by 4443     ratio: 0.7778528)
(image_scale, old size: 3456 by 4443     ratio: 0.7778528)
(image_scale, new size: 1094 by 1406     ratio: 0.7780939)
(image_unsharpen: 4)
(image_unsharpen: 3)
(image_boarder: b1.png   0   0)
(image_boarder: b11.png   0   0)
(image_desaturate)
(final dimensions: 1094 by 1406)
(paper_size: 812,80 by 1016,00      32,00 by 40,00)
(drawing size max: 711,20 by 914,40      28,00 by 36,00)
(drawing size calculated 711,20 by 914,03      28,00 by 35,99)
(gcode_scale X:  0,65)
(gcode_scale Y:  0,65)
(gcode_scale:    0,65)
(adjustbrightness: 10)
(squiggle_length: 500)
(extreams of X: 2.14748365E9 thru -2.14748365E9)
(extreams of Y: 2.14748365E9 thru -2.14748365E9)

G21
G90
G1 Z0
G1 Z0
G1 X-355.60 Y-234.01
G1 X-68.91 Y592.90
G1 Z1
G1 X-69.56 Y594.20
G1 X-66.96 Y575.35
G1 X-59.16 Y559.75
G1 X-61.76 Y578.60
G1 X-65.01 Y589.00
G1 X-66.31 Y574.70
G1 X-63.06 Y579.90
G1 X-63.06 Y568.20
G1 X-68.26 Y557.15
G1 X-62.41 Y541.54
G1 X-66.96 Y527.89
G1 X-62.41 Y532.44
G1 X-73.46 Y537.64
G1 X-79.96 Y534.39
G1 X-79.96 Y526.59
G1 X-78.01 Y529.84
G1 X-80.61 Y537.64
G1 X-78.66 Y552.60
G1 X-82.56 Y561.70
G1 X-101.41 Y559.75
G1 X-107.27 Y558.45
G1 X-105.31 Y567.55
G1 X-107.27 Y574.05
G1 X-97.51 Y571.45
G1 X-91.66 Y574.05
G1 X-94.26 Y567.55
G1 X-91.66 Y561.70
G1 X-91.01 Y545.45
G1 X-93.61 Y550.00
G1 X-92.96 Y531.14
G1 X-92.31 Y527.24
G1 X-91.01 Y541.54
G1 X-93.61 Y559.75
G1 X-78.01 Y559.75
G1 X-81.26 Y561.70
G1 X-76.71 Y575.35
G1 X-64.36 Y567.55
G1 X-70.86 Y559.10
G1 X-55.91 Y552.60
G1 X-39.01 Y555.20
G1 X-25.35 Y552.60
G1 X-13.00 Y555.85
G1 X-14.95 Y539.59
G1 X-9.75 Y555.85
G1 X-9.75 Y548.05
G1 X-27.30 Y555.85
G1 X-28.60 Y574.70
G1 X-11.05 Y571.45
G1 X-6.50 Y560.40
G1 X-20.80 Y565.60
G1 X-27.30 Y561.70
G1 X-13.00 Y562.35
G1 X-14.95 Y555.85
G1 X-26.00 Y555.85
G1 X-29.25 Y553.90
G1 X-24.05 Y553.90
G1 X-20.15 Y555.20
G1 X-39.01 Y553.90
G1 X-44.86 Y553.90
G1 X-47.46 Y555.20
G1 X-53.31 Y555.20
G1 X-65.66 Y551.95
G1 X-66.31 Y555.20
G1 X-63.71 Y553.25
G1 X-61.11 Y553.90
G1 X-58.51 Y553.25
G1 X-64.36 Y549.35
G1 X-64.36 Y551.95
G1 X-72.16 Y547.40
G1 X-78.66 Y550.00
G1 X-78.66 Y547.40
G1 X-79.31 Y535.69
G1 X-98.16 Y536.34
G1 X-117.02 Y535.69
G1 X-119.62 Y527.24
G1 X-115.72 Y527.24
G1 X-119.62 Y546.10
G1 X-131.97 Y550.00
G1 X-127.42 Y561.05
G1 X-131.97 Y576.00
G1 X-129.37 Y557.15
G1 X-129.37 Y540.89
G1 X-135.22 Y540.24
G1 X-133.92 Y536.99
G1 X-131.97 Y540.24
G1 X-130.02 Y548.05
G1 X-130.02 Y541.54
G1 X-132.62 Y536.99
G1 X-124.17 Y526.59
G1 X-131.32 Y529.19
G1 X-128.07 Y534.39
G1 X-118.32 Y537.64
G1 X-118.32 Y535.04
G1 X-126.12 Y536.34
G1 X-130.67 Y525.29
G1 X-117.02 Y529.19
G1 X-117.67 Y531.79
G1 X-128.72 Y546.10
G1 X-128.07 Y540.89
G1 X-128.72 Y542.19
G1 X-126.77 Y547.40
G1 X-107.92 Y547.40
G1 X-103.36 Y548.05
G1 X-105.96 Y538.94
G1 X-105.96 Y526.59
G1 X-103.36 Y535.69
G1 X-105.31 Y535.69
G1 X-106.61 Y554.55
G1 X-105.31 Y565.60
G1 X-105.31 Y546.75
G1 X-105.31 Y544.15
G1 X-105.31 Y542.84
G1 X-98.81 Y549.35
G1 X-94.26 Y546.75
G1 X-104.66 Y550.00
G1 X-104.66 Y545.45
G1 X-104.66 Y526.59
G1 X-102.71 Y529.19
G1 X-91.01 Y526.59
G1 X-90.36 Y535.69
G1 X-92.96 Y545.45
G1 X-79.96 Y549.35
G1 X-79.96 Y547.40
G1 X-85.16 Y547.40
G1 X-89.06 Y549.35
G1 X-81.26 Y549.35
G1 X-78.66 Y559.10
G1 X-80.61 Y558.45
G1 X-78.66 Y567.55
G1 X-81.26 Y575.35
G1 X-78.66 Y585.75
G1 X-65.66 Y585.75
G1 X-69.56 Y595.50
G1 X-55.26 Y584.45
G1 X-63.71 Y587.70
G1 X-58.51 Y579.25
G1 X-56.56 Y560.40
G1 X-40.31 Y563.65
G1 X-40.31 Y559.75
G1 X-32.50 Y563.65
G1 X-48.11 Y561.70
G1 X-29.25 Y561.70
G1 X-28.60 Y566.25
G1 X-29.25 Y575.35
G1 X-10.40 Y574.05
G1 X-5.20 Y560.40
G1 X-17.55 Y570.15
G1 X-35.76 Y574.70
G1 X-29.90 Y591.60
G1 X-18.85 Y583.80
G1 X-4.55 Y589.00
G1 X-9.75 Y574.05
G1 X-4.55 Y574.05
G1 X-21.45 Y571.45
G1 X-27.30 Y562.35
G1 X-26.00 Y566.90
G1 X-27.95 Y572.10
G1 X-29.90 Y590.30
G1 X-47.46 Y582.50
G1 X-38.36 Y597.45
G1 X-19.50 Y595.50
G1 X-12.35 Y595.50
G1 X-19.50 Y585.10
G1 X-9.10 Y589.65
G1 X-26.65 Y589.65
G1 X-29.25 Y596.15
G1 X-26.65 Y594.20
G1 X-29.25 Y588.35
G1 X-22.10 Y585.10
G1 X-5.85 Y575.35
G1 X-24.05 Y575.35
G1 X-28.60 Y587.70
G1 X-46.16 Y579.90
G1 X-44.86 Y563.65
G1 X-50.06 Y564.95
G1 X-46.81 Y576.00
G1 X-57.21 Y570.80
G1 X-59.16 Y564.30
G1 X-45.51 Y563.00
G1 X-56.56 Y566.25
G1 X-66.31 Y564.30
G1 X-68.26 Y558.45
G1 X-62.41 Y563.65
G1 X-65.66 Y564.95
G1 X-63.71 Y567.55
G1 X-68.91 Y575.35
G1 X-68.91 Y570.80
G1 X-71.51 Y574.05
G1 X-90.36 Y570.80
G1 X-108.57 Y575.35
G1 X-104.66 Y585.10
G1 X-108.57 Y583.15
G1 X-106.61 Y595.50
G1 X-112.47 Y581.20
G1 X-120.92 Y584.45
G1 X-118.97 Y595.50
G1 X-121.57 Y593.55
G1 X-132.62 Y595.50
G1 X-127.42 Y592.90
G1 X-131.97 Y580.55
G1 X-126.12 Y583.15
G1 X-126.12 Y570.15
G1 X-130.02 Y575.35
G1 X-128.07 Y568.85
G1 X-109.22 Y572.75
G1 X-125.47 Y572.75
G1 X-115.07 Y557.80
G1 X-128.07 Y557.80
G1 X-129.37 Y561.70
G1 X-128.72 Y569.50
G1 X-126.77 Y572.75
G1 X-129.37 Y575.35
G1 X-126.77 Y575.35
G1 X-130.02 Y570.80
G1 X-130.02 Y572.10
G1 X-131.32 Y575.35
G1 X-114.42 Y583.80
G1 X-120.27 Y585.75
G1 X-117.67 Y593.55
G1 X-118.97 Y574.70
G1 X-117.02 Y561.70
G1 X-122.87 Y558.45
G1 X-127.42 Y558.45
G1 X-131.97 Y546.75
G1 X-130.67 Y543.50
G1 X-130.67 Y541.54
G1 X-131.97 Y542.19
G1 X-134.57 Y536.99
G1 X-133.92 Y539.59
G1 X-130.67 Y558.45
G1 X-131.32 Y568.85
G1 X-132.62 Y573.40
G1 X-131.32 Y557.15
G1 X-130.67 Y555.85
G1 X-130.02 Y557.80
G1 X-129.37 Y560.40
G1 X-128.72 Y561.70
G1 X-128.07 Y568.20
G1 X-117.02 Y558.45
G1 X-123.52 Y559.75
G1 X-126.77 Y559.10
G1 X-126.12 Y564.30
G1 X-128.72 Y561.05
G1 X-109.87 Y559.75
G1 X-120.92 Y553.25
G1 X-117.02 Y540.24
G1 X-116.37 Y536.34
G1 X-107.92 Y536.34
G1 X-106.61 Y542.84
G1 X-108.57 Y561.05
G1 X-105.96 Y579.90
G1 X-107.27 Y583.15
G1 X-99.46 Y584.45
G1 X-92.31 Y582.50
G1 X-94.26 Y595.50
G1 X-92.31 Y591.60
G1 X-93.61 Y596.15
G1 X-92.31 Y594.20
G1 X-92.96 Y596.80
G1 X-107.27 Y587.70
G1 X-107.27 Y584.45
G1 X-104.66 Y586.40
G1 X-99.46 Y583.15
G1 X-105.31 Y581.85
G1 X-103.36 Y565.60
G1 X-105.96 Y572.75
G1 X-99.46 Y571.45
G1 X-92.31 Y574.70
G1 X-94.91 Y579.25
G1 X-92.96 Y584.45
G1 X-95.56 Y583.80
G1 X-92.96 Y590.95
G1 X-87.11 Y582.50
G1 X-87.11 Y587.05
G1 X-90.36 Y578.60
G1 X-79.96 Y584.45
G1 X-81.91 Y579.90
G1 X-79.31 Y573.40
G1 X-91.66 Y571.45
G1 X-93.61 Y567.55
G1 X-91.01 Y561.70
G1 X-89.71 Y546.75
G1 X-88.41 Y548.05
G1 X-74.76 Y548.05
G1 X-59.81 Y536.34
G1 X-65.66 Y530.49
G1 X-65.01 Y527.89
G1 X-57.21 Y537.64
G1 X-38.36 Y537.64
G1 X-39.01 Y527.89
G1 X-55.26 Y520.09
G1 X-61.11 Y520.09
G1 X-63.06 Y516.84
G1 X-68.26 Y516.84
G1 X-69.56 Y512.94
G1 X-66.31 Y516.19
G1 X-75.41 Y510.34
G1 X-72.81 Y510.99
G1 X-75.41 Y509.04
G1 X-73.46 Y509.69
G1 X-67.61 Y516.19
G1 X-65.66 Y515.54
G1 X-62.41 Y518.79
G1 X-58.51 Y518.79
G1 X-47.46 Y524.64
G1 X-28.60 Y523.34
G1 X-20.80 Y521.39
G1 X-29.90 Y521.39
G1 X-35.10 Y523.34
G1 X-44.21 Y523.34
G1 X-42.91 Y523.99
G1 X-48.76 Y522.69
G1 X-50.71 Y521.39
G1 X-48.76 Y522.04
G1 X-52.66 Y540.89
G1 X-70.21 Y547.40
G1 X-63.06 Y541.54
G1 X-66.96 Y543.50
G1 X-64.36 Y536.99
G1 X-66.96 Y531.79
G1 X-65.66 Y542.19
G1 X-62.41 Y540.24
G1 X-59.81 Y536.99
G1 X-64.36 Y533.74
G1 X-63.71 Y536.34
G1 X-59.16 Y541.54
G1 X-41.61 Y548.70
G1 X-33.80 Y550.00
G1 X-35.10 Y531.14
G1 X-53.96 Y527.89
G1 X-48.11 Y531.14
G1 X-63.06 Y529.19
G1 X-66.31 Y533.74
G1 X-73.46 Y536.99
G1 X-79.31 Y532.44
G1 X-79.31 Y529.84
G1 X-79.31 Y528.54
G1 X-76.71 Y527.24
G1 X-66.96 Y529.84
G1 X-67.61 Y527.24
G1 X-65.66 Y527.89
G1 X-65.01 Y529.19
G1 X-47.46 Y535.69
G1 X-39.01 Y535.04
G1 X-40.31 Y553.25
G1 X-53.31 Y552.60
G1 X-53.96 Y544.15
G1 X-66.96 Y549.35
G1 X-65.01 Y543.50
G1 X-67.61 Y546.10
G1 X-72.81 Y550.65
G1 X-63.06 Y555.20
G1 X-65.01 Y552.60
G1 X-65.01 Y553.90
G1 X-49.41 Y546.10
G1 X-43.56 Y552.60
G1 X-27.30 Y552.60
G1 X-25.35 Y533.74
G1 X-27.95 Y528.54
G1 X-24.05 Y529.84
G1 X-38.36 Y528.54
G1 X-33.15 Y531.14
G1 X-28.60 Y550.00
G1 X-14.95 Y550.00
G1 X-16.25 Y544.15
G1 X-14.30 Y527.89
G1 X-11.70 Y544.80
G1 X-13.65 Y542.19
G1 X-14.30 Y533.09
G1 X-14.30 Y531.14
G1 X-3.25 Y529.84
G1 X-10.40 Y547.40
G1 X-11.05 Y555.85
G1 X-20.15 Y553.25
G1 X-13.65 Y553.25
G1 X-13.65 Y554.55
G1 X-16.25 Y553.90
G1 X-11.05 Y570.15
G1 X-24.05 Y563.00
G1 X-20.15 Y562.35
G1 X-13.00 Y565.60
G1 X-14.95 Y563.00
G1 X-17.55 Y563.00
G1 X-19.50 Y564.30
G1 X-21.45 Y563.00
G1 X-19.50 Y563.00
G1 X-14.95 Y559.75
G1 X-14.95 Y561.70
G1 X-21.45 Y561.05
G1 X-36.41 Y561.05
G1 X-31.85 Y579.90
G1 X-48.11 Y589.65
G1 X-47.46 Y583.80
G1 X-50.71 Y574.70
G1 X-46.16 Y570.80
G1 X-45.51 Y564.30
G1 X-49.41 Y565.60
G1 X-61.11 Y577.30
G1 X-58.51 Y569.50
G1 X-64.36 Y559.10
G1 X-64.36 Y563.65
G1 X-62.41 Y564.30
G1 X-61.76 Y576.00
G1 X-65.01 Y575.35
G1 X-67.61 Y570.15
G1 X-66.96 Y574.05
G1 X-70.21 Y585.10
G1 X-78.66 Y583.80
G1 X-79.96 Y576.00
G1 X-81.91 Y573.40
G1 X-96.21 Y571.45
G1 X-104.66 Y554.55
G1 X-104.66 Y557.15
G1 X-104.66 Y558.45
G1 X-102.71 Y559.10
G1 X-94.26 Y559.10
G1 X-92.96 Y550.00
G1 X-94.26 Y553.90
G1 X-94.26 Y547.40
G1 X-96.21 Y549.35
G1 X-103.36 Y544.15
G1 X-104.01 Y536.99
G1 X-100.11 Y537.64
G1 X-96.86 Y536.99
G1 X-78.01 Y536.99
G1 X-78.66 Y540.89
G1 X-66.96 Y535.04
G1 X-67.61 Y540.24
G1 X-61.76 Y536.99
G1 X-42.91 Y536.99
G1 X-39.66 Y536.99
G1 X-42.91 Y547.40
G1 X-61.11 Y552.60
G1 X-68.91 Y548.70
G1 X-56.56 Y543.50
G1 X-41.61 Y540.89
G1 X-46.16 Y538.29
G1 X-52.01 Y540.24
G1 X-34.45 Y546.75
G1 X-38.36 Y538.94
G1 X-26.00 Y535.69
G1 X-28.60 Y538.94
G1 X-27.30 Y546.75
G1 X-15.60 Y549.35
G1 X-22.10 Y531.14
G1 X-34.45 Y529.84
G1 X-48.11 Y528.54
G1 X-50.06 Y530.49
G1 X-39.66 Y531.14
G1 X-50.71 Y536.34
G1 X-62.41 Y530.49
G1 X-65.01 Y532.44
G1 X-69.56 Y529.84
G1 X-77.36 Y528.54
G1 X-78.66 Y530.49
G1 X-74.11 Y535.69
G1 X-70.21 Y535.04
G1 X-67.61 Y528.54
G1 X-75.41 Y527.24
G1 X-78.66 Y538.29
G1 X-90.36 Y537.64
G1 X-88.41 Y546.10
G1 X-79.96 Y546.10
G1 X-81.26 Y542.84
G1 X-80.61 Y525.29
G1 X-92.31 Y531.14
G1 X-92.31 Y533.74
G1 X-92.31 Y535.04
G1 X-102.71 Y535.69
G1 X-104.01 Y528.54
G1 X-117.67 Y527.89
G1 X-118.32 Y529.84
G1 X-119.62 Y533.74
G1 X-132.62 Y533.09
G1 X-126.77 Y527.89
G1 X-128.72 Y526.59
G1 X-128.72 Y527.89
G1 X-130.02 Y525.94
G1 X-131.97 Y527.89
G1 X-130.67 Y527.89
G1 X-130.02 Y529.84
G1 X-128.72 Y529.19
G1 X-120.27 Y527.24
G1 X-127.42 Y543.50
G1 X-128.07 Y555.85
G1 X-122.87 Y557.15
G1 X-115.72 Y555.85
G1 X-120.92 Y548.05
G1 X-107.92 Y548.05
G1 X-120.27 Y552.60
G1 X-117.67 Y548.70
G1 X-118.32 Y551.30
G1 X-114.42 Y548.70
G1 X-126.77 Y548.70
G1 X-126.12 Y555.85
G1 X-117.67 Y555.85
G1 X-119.62 Y554.55
G1 X-118.32 Y553.25
G1 X-120.27 Y553.25
G1 X-118.97 Y572.10
G1 Z0
G1 X-285.39 Y587.05
G1 Z1
G1 X-285.39 Y587.05
G1 X-284.74 Y577.95
G1 X-284.09 Y566.25
G1 X-295.79 Y566.25
G1 X-293.84 Y568.85
G1 X-295.79 Y578.60
G1 X-294.49 Y583.15
G1 X-295.14 Y586.40
G1 X-280.19 Y589.65
G1 X-280.19 Y570.80
G1 X-280.84 Y566.90
G1 X-261.99 Y567.55
G1 X-260.69 Y570.80
G1 X-261.99 Y579.90
G1 X-261.34 Y585.10
G1 X-261.99 Y591.60
G1 X-271.74 Y585.10
G1 X-271.74 Y567.55
G1 X-270.44 Y576.65
G1 X-271.09 Y581.85
G1 X-270.44 Y585.10
G1 X-265.24 Y587.05
G1 X-265.89 Y568.20
G1 X-253.54 Y567.55
G1 X-257.44 Y580.55
G1 X-256.14 Y585.10
G1 X-257.44 Y588.35
G1 X-257.44 Y581.85
G1 X-255.49 Y589.00
G1 X-257.44 Y589.65
G1 X-256.79 Y588.35
G1 X-256.79 Y587.70
G1 X-256.14 Y588.35
G1 X-256.14 Y569.50
G1 X-256.79 Y574.70
G1 X-256.79 Y565.60
G1 X-263.29 Y566.90
G1 X-271.09 Y565.60
G1 X-271.09 Y569.50
G1 X-269.79 Y576.00
G1 X-270.44 Y583.15
G1 X-286.69 Y581.20
G1 X-285.39 Y590.30
G1 X-291.89 Y589.65
G1 X-289.29 Y588.35
G1 X-291.24 Y588.35
G1 X-289.94 Y585.75
G1 X-289.94 Y587.05
G1 X-286.69 Y587.05
G1 X-286.69 Y583.80
G1 X-285.39 Y581.85
G1 X-285.39 Y577.95
G1 X-286.04 Y571.45
G1 X-285.39 Y566.90
G1 X-284.09 Y574.70
G1 X-274.34 Y577.30
G1 X-276.29 Y571.45
G1 X-275.64 Y585.10
G1 X-276.94 Y583.15
G1 X-276.29 Y586.40
G1 X-274.99 Y585.10
G1 X-274.99 Y566.25
G1 X-276.29 Y566.25
G1 X-275.64 Y570.15
G1 X-275.64 Y571.45
G1 X-285.39 Y564.95
G1 X-284.74 Y567.55
G1 X-285.39 Y571.45
G1 X-285.39 Y572.75
G1 X-286.04 Y574.70
G1 X-290.59 Y574.05
G1 X-290.59 Y566.90
G1 X-289.29 Y571.45
G1 X-290.59 Y578.60
G1 X-288.64 Y575.35
G1 X-289.94 Y570.80
G1 X-288.64 Y566.90
G1 X-289.94 Y566.90
G1 X-288.64 Y568.20
G1 X-300.34 Y568.20
G1 X-298.39 Y571.45
G1 X-299.04 Y565.60
G1 X-293.84 Y582.50
G1 X-293.84 Y570.80
G1 X-295.14 Y568.85
G1 X-295.14 Y571.45
G1 X-294.49 Y577.95
G1 X-294.49 Y579.25
G1 X-296.44 Y588.35
G1 X-294.49 Y587.05
G1 X-295.79 Y587.05
G1 X-295.79 Y579.90
G1 X-300.34 Y579.90
G1 X-299.04 Y577.30
G1 X-299.04 Y579.25
G1 X-297.74 Y577.30
G1 X-299.04 Y584.45
G1 X-300.99 Y581.85
G1 X-300.34 Y580.55
G1 X-300.34 Y581.85
G1 X-284.09 Y590.30
G1 X-284.74 Y582.50
G1 X-276.94 Y585.10
G1 X-277.59 Y588.35
G1 X-275.64 Y589.00
G1 X-262.64 Y589.00
G1 X-262.64 Y590.30
G1 X-271.09 Y590.30
G1 X-270.44 Y586.40
G1 X-271.74 Y586.40
G1 X-271.09 Y583.80
G1 X-265.89 Y585.10
G1 X-265.89 Y577.95
G1 X-267.19 Y576.00
G1 X-266.54 Y579.25
G1 X-267.19 Y582.50
G1 X-265.89 Y588.35
G1 X-267.84 Y587.05
G1 X-266.54 Y582.50
G1 X-266.54 Y581.20
G1 X-267.19 Y579.90
G1 X-267.19 Y577.95
G1 X-269.79 Y573.40
G1 X-270.44 Y568.20
G1 X-266.54 Y568.85
G1 X-266.54 Y571.45
G1 X-266.54 Y576.00
G1 X-260.69 Y577.95
G1 X-260.04 Y581.20
G1 X-261.34 Y581.20
G1 X-261.99 Y568.85
G1 X-254.84 Y568.85
G1 X-255.49 Y570.80
G1 X-255.49 Y572.10
G1 X-255.49 Y572.75
G1 X-253.54 Y574.05
G1 X-248.99 Y563.65
G1 X-230.78 Y562.35
G1 X-237.28 Y544.15
G1 X-235.33 Y531.79
G1 X-237.93 Y524.64
G1 X-234.68 Y516.84
G1 X-234.68 Y497.99
G1 X-235.98 Y493.44
G1 X-234.03 Y488.89
G1 X-235.98 Y483.04
G1 X-234.68 Y467.43
G1 X-234.68 Y448.58
G1 X-234.68 Y429.73
G1 X-234.03 Y410.88
G1 X-234.03 Y408.28
G1 X-234.03 Y399.17
G1 X-234.68 Y392.67
G1 X-233.38 Y397.22
G1 X-234.68 Y381.62
G1 X-234.03 Y362.77
G1 X-234.03 Y354.97
G1 X-235.33 Y350.42
G1 X-234.68 Y347.82
G1 X-235.33 Y328.96
G1 X-234.68 Y322.46
G1 X-234.68 Y319.86
G1 X-235.33 Y312.71
G1 X-234.68 Y300.36
G1 X-233.38 Y284.11
G1 X-234.68 Y285.41
G1 X-234.03 Y286.71
G1 X-234.03 Y285.41
G1 X-234.68 Y284.76
G1 X-234.03 Y284.11
G1 X-232.73 Y285.41
G1 X-232.73 Y287.36
G1 X-234.68 Y287.36
G1 X-233.38 Y288.66
G1 X-232.73 Y288.01
G1 X-234.68 Y288.01
G1 X-232.73 Y284.11
G1 X-232.73 Y284.76
G1 X-232.73 Y284.76
G1 X-234.68 Y303.61
G1 X-234.03 Y308.81
G1 X-234.68 Y314.01
G1 X-235.33 Y325.06
G1 X-234.68 Y325.71
G1 X-234.68 Y327.01
G1 X-233.38 Y341.32
G1 X-234.03 Y344.57
G1 X-235.33 Y360.17
G1 X-234.68 Y357.57
G1 X-234.68 Y356.92
G1 X-232.73 Y359.52
G1 X-233.38 Y357.57
G1 X-233.38 Y354.32
G1 X-234.03 Y353.02
G1 X-234.03 Y350.42
G1 X-234.03 Y349.12
G1 X-231.43 Y355.62
G1 X-235.33 Y361.47
G1 X-232.73 Y360.17
G1 X-233.38 Y362.12
G1 X-232.73 Y366.02
G1 X-233.38 Y369.92
G1 X-234.03 Y383.57
G1 X-233.38 Y388.12
G1 X-250.94 Y392.67
G1 X-241.18 Y392.02
G1 X-246.38 Y379.02
G1 X-243.78 Y360.82
G1 X-241.18 Y369.27
G1 X-244.43 Y368.62
G1 X-243.13 Y373.82
G1 X-245.73 Y378.37
G1 X-247.03 Y384.22
G1 X-248.33 Y391.37
G1 X-247.03 Y392.02
G1 X-244.43 Y373.17
G1 X-244.43 Y370.57
G1 X-240.53 Y367.32
G1 X-243.78 Y366.67
G1 X-243.78 Y363.42
G1 X-245.08 Y361.47
G1 X-245.08 Y362.77
G1 X-244.43 Y367.97
G1 X-242.48 Y367.97
G1 X-243.13 Y371.22
G1 X-242.48 Y375.77
G1 X-244.43 Y381.62
G1 X-242.48 Y384.87
G1 X-241.83 Y389.42
G1 X-246.38 Y390.72
G1 X-242.48 Y387.47
G1 X-243.13 Y374.47
G1 X-244.43 Y380.32
G1 X-243.13 Y382.27
G1 X-243.78 Y384.22
G1 X-245.73 Y386.17
G1 X-246.38 Y384.22
G1 X-246.38 Y382.92
G1 X-247.03 Y380.32
G1 X-245.73 Y365.37
G1 X-245.08 Y367.32
G1 X-244.43 Y378.37
G1 X-241.18 Y380.32
G1 X-242.48 Y377.07
G1 X-242.48 Y380.32
G1 X-241.18 Y385.52
G1 X-240.53 Y389.42
G1 X-248.33 Y387.47
G1 X-248.33 Y389.42
G1 X-250.29 Y392.02
G1 X-248.33 Y394.62
G1 X-248.33 Y393.32
G1 X-241.83 Y392.67
G1 X-243.13 Y393.97
G1 X-245.08 Y392.67
G1 X-242.48 Y391.37
G1 X-243.78 Y391.37
G1 X-244.43 Y391.37
G1 X-247.03 Y389.42
G1 X-247.03 Y386.17
G1 X-247.68 Y384.87
G1 X-247.68 Y380.97
G1 X-241.83 Y364.07
G1 X-243.13 Y360.82
G1 X-252.24 Y352.37
G1 X-260.04 Y354.32
G1 X-258.09 Y353.02
G1 X-260.69 Y353.02
G1 X-263.29 Y353.67
G1 X-282.14 Y353.02
G1 X-286.04 Y353.02
G1 X-282.79 Y356.92
G1 X-291.89 Y355.62
G1 X-295.14 Y356.92
G1 X-285.39 Y356.92
G1 X-273.04 Y353.67
G1 X-270.44 Y349.77
G1 X-271.09 Y343.27
G1 X-271.09 Y340.67
G1 X-270.44 Y331.57
G1 X-270.44 Y328.31
G1 X-271.09 Y331.57
G1 X-270.44 Y343.27
G1 X-270.44 Y345.87
G1 X-271.09 Y349.77
G1 X-270.44 Y351.07
G1 X-271.74 Y352.37
G1 X-270.44 Y351.72
G1 X-271.09 Y353.02
G1 X-271.74 Y338.72
G1 X-269.79 Y337.42
G1 X-270.44 Y336.12
G1 X-270.44 Y337.42
G1 X-269.79 Y338.07
G1 X-271.09 Y342.62
G1 X-271.09 Y347.82
G1 X-274.34 Y357.57
G1 X-280.84 Y356.27
G1 X-274.34 Y354.97
G1 X-266.54 Y356.92
G1 X-248.99 Y352.37
G1 X-245.08 Y353.67
G1 X-249.64 Y353.67
G1 X-262.64 Y356.27
G1 X-245.08 Y355.62
G1 X-250.94 Y352.37
G1 X-253.54 Y353.02
G1 X-256.14 Y353.67
G1 X-256.79 Y353.02
G1 X-257.44 Y353.02
G1 X-258.09 Y354.32
G1 X-264.59 Y353.02
G1 X-266.54 Y352.37
G1 X-285.39 Y352.37
G1 X-289.29 Y353.67
G1 X-295.14 Y353.02
G1 X-291.89 Y352.37
G1 X-289.94 Y353.02
G1 X-288.64 Y353.02
G1 X-282.14 Y355.62
G1 X-289.29 Y355.62
G1 X-291.89 Y356.27
G1 X-289.94 Y356.27
G1 X-288.64 Y375.12
G1 X-290.59 Y381.62
G1 X-287.99 Y362.77
G1 X-288.64 Y364.07
G1 X-288.64 Y362.77
G1 X-294.49 Y364.72
G1 X-299.04 Y363.42
G1 X-297.74 Y366.02
G1 X-297.74 Y362.77
G1 X-292.54 Y364.72
G1 X-293.84 Y366.67
G1 X-293.19 Y368.62
G1 X-296.44 Y387.47
G1 X-295.14 Y384.87
G1 X-295.79 Y387.47
G1 X-280.19 Y386.17
G1 X-261.34 Y386.17
G1 X-260.04 Y367.32
G1 X-260.04 Y363.42
G1 X-259.39 Y364.72
G1 X-259.39 Y362.77
G1 X-252.89 Y364.72
G1 X-256.14 Y373.17
G1 X-255.49 Y382.27
G1 X-256.79 Y387.47
G1 X-257.44 Y380.32
G1 X-254.84 Y377.07
G1 X-255.49 Y374.47
G1 X-255.49 Y372.52
G1 X-256.14 Y371.22
G1 X-253.54 Y365.37
G1 X-255.49 Y365.37
G1 X-253.54 Y364.07
G1 X-254.84 Y362.77
G1 X-252.89 Y363.42
G1 X-255.49 Y363.42
G1 X-257.44 Y379.67
G1 X-256.14 Y380.97
G1 X-258.09 Y387.47
G1 X-267.19 Y386.82
G1 X-267.19 Y388.12
G1 X-277.59 Y386.82
G1 X-274.99 Y380.97
G1 X-275.64 Y371.87
G1 X-272.39 Y364.07
G1 X-274.99 Y364.72
G1 X-273.69 Y362.77
G1 X-273.69 Y366.02
G1 X-274.99 Y367.97
G1 X-274.34 Y371.87
G1 X-274.34 Y376.42
G1 X-277.59 Y385.52
G1 X-287.34 Y384.87
G1 X-286.69 Y390.72
G1 X-286.04 Y374.47
G1 X-283.44 Y369.92
G1 X-283.44 Y362.77
G1 X-284.74 Y369.27
G1 X-284.09 Y373.82
G1 X-285.39 Y380.32
G1 X-286.04 Y390.07
G1 X-281.49 Y386.82
G1 X-279.54 Y370.57
G1 X-280.19 Y364.07
G1 X-278.24 Y363.42
G1 X-279.54 Y365.37
G1 X-279.54 Y366.67
G1 X-277.59 Y364.07
G1 X-278.89 Y368.62
G1 X-282.79 Y380.32
G1 X-276.29 Y379.67
G1 X-275.64 Y381.62
G1 X-276.94 Y380.32
G1 X-274.99 Y375.12
G1 X-274.99 Y371.22
G1 X-263.29 Y362.77
G1 X-265.89 Y366.67
G1 X-264.59 Y370.57
G1 X-267.84 Y382.92
G1 X-261.99 Y382.92
G1 X-262.64 Y385.52
G1 X-263.29 Y388.12
G1 X-269.79 Y387.47
G1 X-272.39 Y380.97
G1 X-269.79 Y380.97
G1 X-271.09 Y377.07
G1 X-269.79 Y374.47
G1 X-269.79 Y367.97
G1 X-269.14 Y362.77
G1 X-269.79 Y364.72
G1 X-268.49 Y366.02
G1 X-268.49 Y362.77
G1 X-263.29 Y365.37
G1 X-265.24 Y366.67
G1 X-264.59 Y368.62
G1 X-261.34 Y379.67
G1 X-261.99 Y382.27
G1 X-271.09 Y381.62
G1 X-271.09 Y378.37
G1 X-277.59 Y388.12
G1 X-275.64 Y387.47
G1 X-266.54 Y383.57
G1 X-266.54 Y385.52
G1 X-267.84 Y385.52
G1 X-264.59 Y375.77
G1 X-266.54 Y373.17
G1 X-265.24 Y370.57
G1 X-265.89 Y368.62
G1 X-256.14 Y364.07
G1 X-256.14 Y366.02
G1 X-254.84 Y367.32
G1 X-254.84 Y366.02
G1 X-255.49 Y368.62
G1 X-255.49 Y367.32
G1 X-254.84 Y375.12
G1 X-256.79 Y381.62
G1 X-255.49 Y385.52
G1 X-256.14 Y387.47
G1 X-258.74 Y385.52
G1 X-258.09 Y384.22
G1 X-258.74 Y386.82
G1 X-264.59 Y374.47
G1 X-264.59 Y371.87
G1 X-265.24 Y371.22
G1 X-266.54 Y374.47
G1 X-267.19 Y379.02
G1 X-271.09 Y373.17
G1 X-270.44 Y370.57
G1 X-270.44 Y362.77
G1 X-282.79 Y362.77
G1 X-282.79 Y365.37
G1 X-288.64 Y362.12
G1 X-294.49 Y363.42
G1 X-293.19 Y362.77
G1 X-292.54 Y363.42
G1 X-287.34 Y365.37
G1 X-287.34 Y363.42
G1 X-284.74 Y364.72
G1 X-284.09 Y364.07
G1 X-284.09 Y362.77
G1 X-284.74 Y363.42
G1 X-294.49 Y367.97
G1 X-303.59 Y366.02
G1 X-301.64 Y364.07
G1 X-302.94 Y364.72
G1 X-302.29 Y362.77
G1 X-297.74 Y366.67
G1 X-299.04 Y366.67
G1 X-303.59 Y372.52
G1 X-303.59 Y366.67
G1 X-302.29 Y366.67
G1 X-302.94 Y369.27
G1 X-302.94 Y370.57
G1 X-304.24 Y382.27
G1 X-299.69 Y387.47
G1 X-299.69 Y382.27
G1 X-300.99 Y384.22
G1 X-300.34 Y386.17
G1 X-300.99 Y386.82
G1 X-303.59 Y386.82
G1 X-300.34 Y384.22
G1 X-300.34 Y384.87
G1 X-301.64 Y386.17
G1 X-300.34 Y377.07
G1 X-287.99 Y391.37
G1 X-287.34 Y388.77
G1 X-287.99 Y387.47
G1 X-287.99 Y389.42
G1 X-287.34 Y390.72
G1 X-287.34 Y390.07
G1 X-276.29 Y381.62
G1 X-292.54 Y385.52
G1 X-284.74 Y374.47
G1 X-284.74 Y373.17
G1 X-285.39 Y371.87
G1 X-285.39 Y364.72
G1 X-276.29 Y375.77
G1 Z0
G1 X198.28 Y517.49
G1 Z1
G1 X198.28 Y517.49
G1 X193.08 Y506.44
G1 X199.58 Y515.54
G1 X200.23 Y520.74
G1 X206.08 Y519.44
G1 X193.08 Y510.34
G1 X197.63 Y501.89
G1 X196.98 Y510.99
G1 X195.03 Y513.59
G1 X194.38 Y511.64
G1 X213.23 Y516.19
G1 X212.58 Y503.19
G1 X209.98 Y498.64
G1 X212.58 Y512.94
G1 X211.93 Y518.79
G1 X197.63 Y519.44
G1 X198.93 Y517.49
G1 X198.93 Y518.79
G1 X203.48 Y518.14
G1 X214.53 Y517.49
G1 X213.88 Y514.89
G1 X197.63 Y507.74
G1 X197.63 Y511.64
G1 X208.03 Y510.34
G1 X206.08 Y513.59
G1 X201.53 Y511.64
G1 X198.28 Y512.94
G1 X200.88 Y514.89
G1 X203.48 Y514.24
G1 X203.48 Y516.84
G1 X212.58 Y516.84
G1 X213.88 Y516.84
G1 X213.88 Y516.19
G1 X213.88 Y507.09
G1 X211.28 Y503.19
G1 X211.28 Y501.89
G1 X211.28 Y493.44
G1 X215.83 Y497.99
G1 X219.73 Y497.34
G1 X227.53 Y481.74
G1 X237.93 Y481.74
G1 X226.23 Y484.99
G1 X221.68 Y482.39
G1 X225.58 Y495.39
G1 X222.33 Y494.74
G1 X224.28 Y493.44
G1 X223.63 Y491.49
G1 X228.18 Y482.39
G1 X230.78 Y482.39
G1 X234.03 Y482.39
G1 X248.33 Y488.24
G1 X249.64 Y499.29
G1 X245.08 Y507.09
G1 X248.99 Y506.44
G1 X248.99 Y501.24
G1 X245.73 Y492.14
G1 X244.43 Y474.59
G1 X247.68 Y480.44
G1 X247.03 Y494.09
G1 X248.99 Y490.19
G1 X234.03 Y483.69
G1 X226.88 Y485.64
G1 X224.93 Y491.49
G1 X227.53 Y495.39
G1 X239.88 Y500.59
G1 X243.78 Y506.44
G1 X249.64 Y495.39
G1 X249.64 Y492.14
G1 X238.58 Y486.29
G1 X222.33 Y482.39
G1 X223.63 Y487.59
G1 X223.63 Y484.34
G1 X225.58 Y486.29
G1 X243.78 Y492.14
G1 X247.03 Y484.34
G1 X245.73 Y480.44
G1 X245.73 Y477.84
G1 X247.03 Y482.39
G1 X239.23 Y486.29
G1 X235.33 Y488.24
G1 X239.88 Y487.59
G1 X241.18 Y485.64
G1 X237.93 Y482.39
G1 X241.83 Y484.34
G1 X240.53 Y484.34
G1 X244.43 Y481.74
G1 X243.78 Y474.59
G1 X241.83 Y476.54
G1 X236.63 Y463.53
G1 X226.23 Y473.29
G1 X230.13 Y473.29
G1 X226.88 Y471.33
G1 X211.28 Y460.93
G1 X204.13 Y456.38
G1 X215.18 Y456.38
G1 X219.73 Y463.53
G1 X209.98 Y457.03
G1 X206.08 Y457.03
G1 X187.23 Y457.03
G1 X174.87 Y456.38
G1 X168.37 Y453.13
G1 X164.47 Y453.78
G1 X159.92 Y451.83
G1 X153.42 Y451.83
G1 X146.27 Y435.58
G1 X135.87 Y447.28
G1 X128.07 Y443.38
G1 X146.27 Y449.23
G1 X139.12 Y434.93
G1 X157.32 Y430.38
G1 X165.12 Y432.33
G1 X183.33 Y438.83
G1 X179.43 Y435.58
G1 X172.92 Y434.28
G1 X180.08 Y436.88
G1 X191.78 Y436.88
G1 X193.08 Y444.68
G1 X206.08 Y434.28
G1 X197.63 Y447.28
G1 X216.48 Y445.33
G1 X226.88 Y431.68
G1 X223.63 Y447.28
G1 X219.08 Y461.58
G1 X212.58 Y457.03
G1 X211.28 Y461.58
G1 X204.78 Y457.68
G1 X190.48 Y462.23
G1 X190.48 Y457.68
G1 X196.33 Y459.63
G1 X193.73 Y466.78
G1 X191.13 Y462.88
G1 X194.38 Y462.88
G1 X193.73 Y465.48
G1 X189.18 Y464.18
G1 X188.53 Y466.13
G1 X193.08 Y458.98
G1 X193.73 Y462.23
G1 X191.78 Y462.23
G1 X187.23 Y452.48
G1 X179.43 Y455.73
G1 X170.32 Y453.78
G1 X187.23 Y454.43
G1 X181.38 Y456.38
G1 X194.38 Y455.73
G1 X191.78 Y453.78
G1 X187.23 Y455.73
G1 X184.63 Y455.73
G1 X176.82 Y454.43
G1 X171.62 Y455.73
G1 X167.07 Y453.78
G1 X163.82 Y453.13
G1 X146.27 Y447.93
G1 X141.72 Y447.28
G1 X139.12 Y445.33
G1 X134.57 Y443.38
G1 X144.32 Y436.88
G1 X126.12 Y437.53
G1 X128.07 Y447.28
G1 X130.67 Y445.33
G1 X128.07 Y444.68
G1 X130.02 Y446.63
G1 X113.12 Y445.98
G1 X109.22 Y443.38
G1 X105.31 Y444.03
G1 X107.92 Y442.73
G1 X119.62 Y447.93
G1 X112.47 Y443.38
G1 X124.17 Y445.98
G1 X126.77 Y445.33
G1 X114.42 Y443.38
G1 X106.61 Y444.68
G1 X107.27 Y444.03
G1 X110.52 Y444.68
G1 X116.37 Y444.68
G1 X117.67 Y445.33
G1 X119.62 Y445.33
G1 X119.62 Y447.28
G1 X118.97 Y446.63
G1 X118.32 Y446.63
G1 X116.37 Y445.33
G1 X117.02 Y445.33
G1 X134.57 Y436.88
G1 X133.92 Y421.28
G1 X117.02 Y417.38
G1 X102.71 Y417.38
G1 X111.82 Y421.28
G1 X112.47 Y418.03
G1 X105.31 Y418.03
G1 X101.41 Y419.98
G1 X91.66 Y414.78
G1 X83.86 Y416.08
G1 X78.01 Y412.18
G1 X70.86 Y412.18
G1 X66.31 Y408.28
G1 X76.06 Y411.53
G1 X70.21 Y410.88
G1 X83.21 Y416.08
G1 X85.81 Y414.13
G1 X81.91 Y414.13
G1 X83.21 Y414.78
G1 X99.46 Y419.33
G1 X96.86 Y415.43
G1 X99.46 Y416.73
G1 X91.66 Y416.73
G1 X91.66 Y415.43
G1 X85.81 Y414.78
G1 X72.16 Y414.13
G1 X74.11 Y412.83
G1 X71.51 Y412.83
G1 X65.01 Y408.93
G1 X57.21 Y411.53
G1 X54.61 Y421.28
G1 X57.21 Y427.78
G1 X52.01 Y434.93
G1 X45.51 Y431.03
G1 X38.36 Y431.03
G1 X40.96 Y432.33
G1 X46.81 Y432.33
G1 X49.41 Y430.38
G1 X53.96 Y431.68
G1 X55.91 Y427.13
G1 X54.61 Y422.58
G1 X56.56 Y420.63
G1 X52.01 Y414.13
G1 X51.36 Y408.93
G1 X54.61 Y416.73
G1 X54.61 Y413.48
G1 X52.66 Y416.08
G1 X53.96 Y417.38
G1 X57.21 Y425.83
G1 X56.56 Y427.78
G1 X52.01 Y446.63
G1 X54.61 Y441.43
G1 X54.61 Y437.53
G1 X50.71 Y431.68
G1 X46.16 Y433.63
G1 X51.36 Y434.93
G1 X50.71 Y432.33
G1 X49.41 Y432.98
G1 X50.71 Y433.63
G1 X48.76 Y430.38
G1 X44.21 Y431.68
G1 X42.91 Y431.68
G1 X40.96 Y431.68
G1 X39.66 Y432.33
G1 X38.36 Y431.68
G1 X39.01 Y431.68
G1 X48.76 Y433.63
G1 X48.76 Y431.68
G1 X50.71 Y430.38
G1 X53.96 Y430.38
G1 X52.01 Y432.98
G1 X52.01 Y431.68
G1 X55.91 Y437.53
G1 X48.11 Y455.08
G1 X45.51 Y460.93
G1 X39.66 Y463.53
G1 X42.26 Y464.83
G1 X50.71 Y447.93
G1 X51.36 Y443.38
G1 X52.66 Y441.43
G1 X52.01 Y444.68
G1 X52.66 Y447.28
G1 X51.36 Y449.23
G1 X50.06 Y453.78
G1 X46.16 Y460.28
G1 X44.86 Y458.33
G1 X42.26 Y461.58
G1 X39.01 Y466.13
G1 X38.36 Y464.18
G1 X41.61 Y464.83
G1 X42.91 Y471.99
G1 X44.21 Y469.38
G1 X43.56 Y471.99
G1 X44.86 Y460.28
G1 X44.21 Y459.63
G1 X46.81 Y477.84
G1 X44.21 Y477.19
G1 X45.51 Y475.89
G1 X45.51 Y477.19
G1 X48.76 Y477.84
G1 X45.51 Y475.24
G1 X52.01 Y478.49
G1 X48.11 Y478.49
G1 X60.46 Y485.64
G1 X68.26 Y483.69
G1 X61.76 Y483.04
G1 X60.46 Y484.99
G1 X61.76 Y484.99
G1 X64.36 Y486.29
G1 X63.06 Y486.29
G1 X62.41 Y485.64
G1 X67.61 Y484.99
G1 X70.86 Y482.39
G1 X78.01 Y477.84
G1 X76.71 Y481.09
G1 X85.81 Y481.09
G1 X78.01 Y479.79
G1 X78.66 Y480.44
G1 X77.36 Y480.44
G1 X75.41 Y479.14
G1 X77.36 Y476.54
G1 X62.41 Y484.34
G1 X64.36 Y483.69
G1 X65.01 Y484.99
G1 X65.66 Y485.64
G1 X64.36 Y486.94
G1 X61.76 Y486.29
G1 X60.46 Y483.04
G1 X57.86 Y484.99
G1 X54.61 Y484.99
G1 X55.91 Y484.34
G1 X54.61 Y484.34
G1 X54.61 Y483.04
G1 X57.21 Y484.34
G1 X72.16 Y484.34
G1 X81.91 Y488.24
G1 X94.26 Y487.59
G1 X98.81 Y492.79
G1 X104.01 Y492.79
G1 X118.32 Y496.04
G1 X113.77 Y492.14
G1 X117.67 Y489.54
G1 X116.37 Y486.94
G1 X115.07 Y490.84
G1 X118.32 Y495.39
G1 X114.42 Y494.74
G1 X111.82 Y493.44
G1 X114.42 Y493.44
G1 X111.82 Y492.14
G1 X107.27 Y492.79
G1 X109.87 Y493.44
G1 X116.37 Y494.74
G1 X115.72 Y492.79
G1 X118.32 Y488.89
G1 X117.02 Y486.29
G1 X98.16 Y481.74
G1 X94.26 Y486.94
G1 X94.91 Y484.34
G1 X92.31 Y486.29
G1 X94.26 Y491.49
G1 X98.16 Y490.84
G1 X102.06 Y492.14
G1 X104.66 Y492.14
G1 X106.61 Y492.79
G1 X109.22 Y494.74
G1 X107.92 Y494.74
G1 X108.57 Y493.44
G1 X109.87 Y494.74
G1 X118.97 Y497.34
G1 X118.97 Y495.39
G1 X113.77 Y491.49
G1 X117.67 Y488.24
G1 X114.42 Y489.54
G1 X111.82 Y492.79
G1 X110.52 Y492.79
G1 X107.27 Y492.14
G1 X105.96 Y492.14
G1 X93.61 Y492.14
G1 X97.51 Y480.44
G1 X105.31 Y484.99
G1 X104.66 Y483.69
G1 X97.51 Y483.69
G1 X99.46 Y482.39
G1 X97.51 Y481.74
G1 X90.36 Y489.54
G1 X85.16 Y488.89
G1 X94.26 Y488.24
G1 X94.91 Y490.84
G1 X96.21 Y488.89
G1 X96.86 Y490.19
G1 X96.86 Y488.89
G1 X95.56 Y488.24
G1 X94.91 Y486.94
G1 X82.56 Y478.49
G1 X79.96 Y479.79
G1 X83.21 Y479.79
G1 X86.46 Y482.39
G1 X82.56 Y481.74
G1 X81.26 Y481.74
G1 X79.31 Y481.74
G1 X78.01 Y481.74
G1 X81.26 Y477.84
G1 X75.41 Y459.63
G1 X68.91 Y445.33
G1 X85.16 Y455.08
G1 X90.36 Y454.43
G1 X96.86 Y458.33
G1 X108.57 Y458.33
G1 X115.07 Y462.23
G1 X120.27 Y461.58
G1 X128.07 Y465.48
G1 X118.32 Y462.88
G1 X117.02 Y460.28
G1 X101.41 Y458.98
G1 X85.16 Y454.43
G1 X83.21 Y452.48
G1 X81.26 Y451.83
G1 X77.36 Y453.13
G1 X76.06 Y450.53
G1 X70.21 Y447.28
G1 X71.51 Y447.28
G1 X77.36 Y454.43
G1 X76.06 Y451.18
G1 X81.91 Y453.78
G1 X85.16 Y455.73
G1 X88.41 Y455.73
G1 X100.76 Y460.28
G1 X111.17 Y460.28
G1 X112.47 Y462.23
G1 X114.42 Y462.23
G1 X118.32 Y460.28
G1 X135.87 Y466.78
G1 X154.07 Y471.33
G1 X160.57 Y470.68
G1 X165.12 Y471.99
G1 X176.82 Y472.64
G1 X181.38 Y473.29
G1 X190.48 Y473.29
G1 X196.98 Y462.88
G1 X190.48 Y464.18
G1 X189.18 Y466.13
G1 X192.43 Y465.48
G1 X193.73 Y464.18
G1 X192.43 Y464.18
G1 X205.43 Y457.68
G1 X209.98 Y457.68
G1 X210.63 Y459.63
G1 X219.73 Y464.18
G1 X221.68 Y445.33
G1 X222.33 Y440.13
G1 X225.58 Y435.58
G1 X222.98 Y418.03
G1 X226.88 Y431.03
G1 X226.23 Y423.88
G1 X224.28 Y421.28
G1 X224.28 Y418.68
G1 X217.13 Y436.23
G1 X206.08 Y445.98
G1 X206.08 Y443.38
G1 X207.38 Y445.33
G1 X211.93 Y444.68
G1 X215.18 Y438.83
G1 X223.63 Y434.93
G1 X222.98 Y447.93
G1 X206.73 Y445.98
G1 X206.08 Y455.73
G1 X214.53 Y455.73
G1 X219.73 Y458.33
G1 X217.13 Y458.33
G1 X218.43 Y460.28
G1 X218.43 Y458.98
G1 X211.93 Y447.28
G1 X207.38 Y447.28
G1 X207.38 Y449.88
G1 X213.23 Y447.28
G1 X215.18 Y452.48
G1 X219.73 Y457.03
G1 X220.38 Y451.83
G1 X221.03 Y440.13
G1 X217.13 Y446.63
G1 X217.13 Y438.83
G1 X212.58 Y445.33
G1 X211.28 Y442.08
G1 X209.33 Y444.68
G1 X208.03 Y444.68
G1 X209.98 Y443.38
G1 X191.13 Y442.08
G1 X191.13 Y437.53
G1 X187.88 Y442.08
G1 X178.13 Y437.53
G1 X159.27 Y433.63
G1 X149.52 Y427.78
G1 X163.17 Y433.63
G1 X160.57 Y431.68
G1 X168.37 Y434.93
G1 X153.42 Y447.28
G1 X148.87 Y440.13
G1 X141.72 Y446.63
G1 X144.32 Y445.98
G1 X143.67 Y447.93
G1 X146.92 Y445.98
G1 X161.22 Y433.63
G1 X158.62 Y432.33
G1 X156.67 Y431.68
G1 X146.92 Y430.38
G1 X137.17 Y422.58
G1 X152.12 Y430.38
G1 X149.52 Y430.38
G1 X146.27 Y427.78
G1 X137.82 Y415.43
G1 X128.07 Y419.33
G1 X123.52 Y416.73
G1 X117.67 Y421.28
G1 X117.67 Y418.03
G1 X120.92 Y416.73
G1 X124.82 Y418.03
G1 X126.77 Y416.73
G1 X130.02 Y418.03
G1 X128.72 Y416.08
G1 Z0
G1 X166.42 Y502.54
G1 Z1
G1 X166.42 Y502.54
G1 X161.87 Y503.84
G1 X147.57 Y499.94
G1 X129.37 Y504.49
G1 X132.62 Y501.89
G1 X138.47 Y483.69
G1 X144.32 Y491.49
G1 X152.12 Y489.54
G1 X170.32 Y495.39
G1 X173.57 Y496.69
G1 X169.02 Y493.44
G1 X163.82 Y492.79
G1 X158.62 Y494.09
G1 X151.47 Y490.19
G1 X158.62 Y492.14
G1 X158.62 Y493.44
G1 X156.67 Y492.14
G1 X153.42 Y493.44
G1 X143.02 Y486.94
G1 X154.07 Y492.14
G1 X154.72 Y494.09
G1 X157.97 Y494.09
G1 X165.12 Y494.09
G1 X163.82 Y495.39
G1 X169.02 Y495.39
G1 X174.22 Y494.09
G1 X173.57 Y496.04
G1 X190.48 Y496.04
G1 X209.33 Y494.74
G1 X195.03 Y507.74
G1 X193.08 Y505.14
G1 X195.68 Y504.49
G1 X193.73 Y506.44
G1 X193.08 Y505.79
G1 X174.22 Y505.79
G1 X170.32 Y502.54
G1 X180.08 Y505.14
G1 X183.98 Y504.49
G1 X182.68 Y508.39
G1 X184.63 Y507.09
G1 X166.42 Y501.89
G1 X151.47 Y500.59
G1 X169.67 Y505.14
G1 X170.97 Y503.84
G1 X168.37 Y503.19
G1 X163.82 Y505.14
G1 X161.22 Y501.89
G1 X163.17 Y502.54
G1 X166.42 Y503.19
G1 X167.07 Y502.54
G1 X172.92 Y505.14
G1 X174.22 Y504.49
G1 X183.33 Y503.19
G1 X180.08 Y504.49
G1 X182.03 Y504.49
G1 X183.33 Y503.84
G1 X182.68 Y503.84
G1 X174.22 Y503.19
G1 X172.92 Y502.54
G1 X171.62 Y502.54
G1 X182.03 Y486.29
G1 X176.82 Y473.29
G1 X157.97 Y471.99
G1 X155.37 Y471.99
G1 X151.47 Y472.64
G1 X146.92 Y470.03
G1 X138.47 Y471.33
G1 X137.17 Y467.43
G1 X142.37 Y470.03
G1 X138.47 Y470.03
G1 X121.57 Y465.48
G1 X115.07 Y462.88
G1 X120.92 Y462.23
G1 X122.22 Y463.53
G1 X123.52 Y463.53
G1 X124.82 Y462.23
G1 X138.47 Y466.78
G1 X141.07 Y466.78
G1 X138.47 Y469.38
G1 X145.62 Y479.14
G1 X160.57 Y472.64
G1 X162.52 Y472.64
G1 X166.42 Y470.68
G1 X170.97 Y470.68
G1 X175.52 Y471.99
G1 X190.48 Y472.64
G1 X182.03 Y468.08
G1 X193.73 Y467.43
G1 X190.48 Y465.48
G1 X187.88 Y446.63
G1 X190.48 Y439.48
G1 X202.83 Y436.23
G1 X205.43 Y428.43
G1 X202.18 Y427.78
G1 X205.43 Y433.63
G1 X205.43 Y429.73
G1 X196.98 Y417.38
G1 X183.33 Y421.28
G1 X173.57 Y418.68
G1 X178.78 Y424.53
G1 X178.13 Y420.63
G1 X175.52 Y419.98
G1 X183.33 Y418.68
G1 X187.88 Y419.33
G1 X193.73 Y420.63
G1 X193.73 Y418.68
G1 X196.98 Y418.68
G1 X194.38 Y419.98
G1 X187.88 Y418.68
G1 X174.87 Y418.68
G1 X176.17 Y418.03
G1 X174.22 Y418.03
G1 X178.78 Y429.73
G1 X195.68 Y430.38
G1 X178.78 Y421.28
G1 X181.38 Y429.08
G1 X178.13 Y427.13
G1 X177.47 Y421.28
G1 X176.17 Y420.63
G1 X183.98 Y419.33
G1 X185.28 Y419.33
G1 X183.98 Y420.63
G1 X180.08 Y421.28
G1 X184.63 Y436.23
G1 X192.43 Y431.03
G1 X183.98 Y431.03
G1 X184.63 Y434.93
G1 X190.48 Y431.68
G1 X184.63 Y431.68
G1 X185.28 Y433.63
G1 X203.48 Y437.53
G1 X200.23 Y440.78
G1 X204.78 Y440.78
G1 X204.78 Y436.88
G1 X223.63 Y434.28
G1 X222.98 Y423.23
G1 X220.38 Y434.28
G1 X222.33 Y444.68
G1 X222.33 Y445.98
G1 X222.33 Y447.28
G1 X221.68 Y451.83
G1 X222.33 Y452.48
G1 X221.03 Y457.68
G1 X220.38 Y463.53
G1 X221.68 Y459.63
G1 X221.68 Y457.03
G1 X222.33 Y457.03
G1 X222.33 Y455.73
G1 X214.53 Y449.88
G1 X214.53 Y447.28
G1 X206.73 Y453.78
G1 X206.73 Y451.18
G1 X205.43 Y448.58
G1 X205.43 Y444.03
G1 X195.68 Y443.38
G1 X197.63 Y449.23
G1 X191.13 Y456.38
G1 X189.83 Y456.38
G1 X203.48 Y456.38
G1 X212.58 Y450.53
G1 X213.88 Y455.08
G1 X208.68 Y453.78
G1 X213.23 Y451.18
G1 X208.03 Y447.93
G1 X207.38 Y452.48
G1 X211.93 Y448.58
G1 X210.63 Y449.23
G1 X212.58 Y436.23
G1 X213.23 Y421.28
G1 X215.18 Y429.08
G1 X215.18 Y421.28
G1 X213.88 Y426.48
G1 X213.88 Y427.78
G1 X208.68 Y410.88
G1 X210.63 Y406.33
G1 X210.63 Y387.47
G1 X205.43 Y377.72
G1 X195.03 Y380.32
G1 X178.78 Y378.37
G1 X197.63 Y378.37
G1 X200.88 Y378.37
G1 X215.18 Y384.87
G1 X206.73 Y377.07
G1 X209.98 Y395.92
G1 X209.98 Y398.52
G1 X209.98 Y400.47
G1 X216.48 Y386.82
G1 X209.33 Y394.62
G1 X221.03 Y392.02
G1 X226.23 Y401.13
G1 X230.13 Y402.43
G1 X229.48 Y405.03
G1 X228.18 Y403.08
G1 X223.63 Y395.92
G1 X220.38 Y399.17
G1 X224.28 Y399.17
G1 X221.68 Y397.22
G1 X221.68 Y393.97
G1 X215.18 Y393.97
G1 X207.38 Y376.42
G1 X209.33 Y377.07
G1 X208.03 Y379.02
G1 X209.98 Y385.52
G1 X209.33 Y388.12
G1 X208.68 Y393.32
G1 X212.58 Y390.72
G1 X213.88 Y384.87
G1 X215.18 Y386.82
G1 X220.38 Y393.32
G1 X221.68 Y398.52
G1 X223.63 Y397.87
G1 X224.28 Y398.52
G1 X223.63 Y397.22
G1 X222.98 Y397.22
G1 X222.33 Y396.57
G1 X222.33 Y395.27
G1 X211.28 Y395.27
G1 X211.93 Y399.17
G1 X211.28 Y398.52
G1 X211.28 Y399.82
G1 X224.93 Y399.82
G1 X224.93 Y400.47
G1 X209.98 Y390.72
G1 X209.98 Y387.47
G1 X208.68 Y385.52
G1 X208.03 Y389.42
G1 X208.68 Y390.72
G1 X209.98 Y375.77
G1 X206.73 Y375.77
G1 X205.43 Y379.67
G1 X202.18 Y377.07
G1 X198.28 Y377.72
G1 X196.33 Y377.72
G1 X193.73 Y377.72
G1 X192.43 Y377.72
G1 X191.13 Y377.72
G1 X189.83 Y377.72
G1 X183.98 Y377.72
G1 X171.62 Y381.62
G1 X170.32 Y378.37
G1 X167.72 Y378.37
G1 X170.32 Y379.67
G1 X176.82 Y378.37
G1 X178.13 Y379.02
G1 X171.62 Y378.37
G1 X172.27 Y380.97
G1 X165.77 Y378.37
G1 X148.22 Y382.27
G1 X152.77 Y379.02
G1 X145.62 Y380.97
G1 X136.52 Y379.02
G1 X131.97 Y381.62
G1 X116.37 Y380.32
G1 X108.57 Y380.32
G1 X105.96 Y381.62
G1 X110.52 Y382.27
G1 X113.12 Y380.97
G1 X108.57 Y380.97
G1 X109.22 Y381.62
G1 X127.42 Y381.62
G1 X134.57 Y379.67
G1 X137.17 Y380.97
G1 X133.92 Y380.97
G1 X130.02 Y379.02
G1 X123.52 Y380.32
G1 X118.97 Y379.67
G1 X115.07 Y380.97
G1 X113.77 Y380.97
G1 X112.47 Y382.27
G1 X120.27 Y382.27
G1 X135.87 Y379.02
G1 X138.47 Y381.62
G1 X143.02 Y379.02
G1 X146.27 Y380.32
G1 X148.87 Y379.02
G1 X144.32 Y379.02
G1 X146.92 Y379.67
G1 X144.32 Y380.32
G1 X141.72 Y379.02
G1 X140.42 Y379.02
G1 X138.47 Y379.02
G1 X141.07 Y381.62
G1 X148.22 Y381.62
G1 X167.07 Y381.62
G1 X181.38 Y381.62
G1 X178.78 Y380.32
G1 X194.38 Y379.02
G1 X198.28 Y379.02
G1 X198.93 Y379.67
G1 X197.63 Y380.97
G1 X195.03 Y379.67
G1 X192.43 Y379.67
G1 X186.58 Y379.02
G1 X190.48 Y379.02
G1 X205.43 Y377.07
G1 X204.13 Y379.02
G1 X204.78 Y379.67
G1 X205.43 Y378.37
G1 X206.73 Y382.27
G1 X207.38 Y382.92
G1 X207.38 Y383.57
G1 X208.03 Y387.47
G1 X207.38 Y388.77
G1 X219.73 Y394.62
G1 X217.13 Y394.62
G1 X211.28 Y394.62
G1 X211.28 Y392.02
G1 X212.58 Y393.32
G1 X211.93 Y393.32
G1 X210.63 Y379.02
G1 X214.53 Y388.12
G1 X217.78 Y392.02
G1 X216.48 Y389.42
G1 X217.78 Y388.77
G1 X218.43 Y390.07
G1 X215.18 Y392.02
G1 X219.08 Y393.32
G1 X219.73 Y393.32
G1 X220.38 Y392.67
G1 X221.03 Y393.32
G1 X221.03 Y392.67
G1 X231.43 Y406.33
G1 X229.48 Y406.33
G1 X230.78 Y404.38
G1 X230.78 Y401.13
G1 X228.18 Y403.73
G1 X229.48 Y401.13
G1 X228.83 Y405.03
G1 X230.78 Y407.63
G1 X230.78 Y406.98
G1 X231.43 Y406.98
G1 X232.73 Y425.83
G1 X229.48 Y416.08
G1 X223.63 Y418.03
G1 X206.08 Y414.13
G1 X209.98 Y410.88
G1 X200.88 Y421.93
G1 X202.83 Y417.38
G1 X204.78 Y427.78
G1 X202.18 Y423.88
G1 X200.88 Y436.23
G1 X202.18 Y436.88
G1 X199.58 Y438.18
G1 X201.53 Y438.83
G1 X202.83 Y440.13
G1 X204.13 Y440.13
G1 X204.13 Y438.18
G1 X203.48 Y439.48
G1 X203.48 Y438.83
G1 X191.78 Y441.43
G1 X191.78 Y439.48
G1 X198.93 Y438.18
G1 X200.23 Y427.78
G1 X201.53 Y435.58
G1 X203.48 Y432.33
G1 X204.13 Y434.93
G1 X206.73 Y433.63
G1 X204.78 Y445.98
G1 X189.18 Y444.68
G1 X170.32 Y444.68
G1 X159.27 Y436.23
G1 X153.42 Y445.98
G1 X152.77 Y441.43
G1 X147.57 Y433.63
G1 X148.87 Y439.48
G1 X152.77 Y444.68
G1 X154.07 Y440.78
G1 X154.72 Y432.33
G1 X169.67 Y438.83
G1 X161.22 Y441.43
G1 X146.92 Y431.03
G1 X135.22 Y433.63
G1 X135.22 Y422.58
G1 X139.12 Y425.83
G1 X120.27 Y423.88
G1 X113.12 Y418.68
G1 X106.61 Y418.68
G1 X104.66 Y419.98
G1 X102.06 Y418.68
G1 X103.36 Y418.03
G1 X102.71 Y418.03
G1 X114.42 Y423.23
G1 X117.02 Y418.03
G1 X117.02 Y420.63
G1 X115.07 Y418.03
G1 X113.77 Y418.03
G1 X115.07 Y419.33
G1 X131.97 Y424.53
G1 X132.62 Y421.93
G1 X118.32 Y418.68
G1 X118.32 Y419.98
G1 X120.27 Y418.68
G1 X130.67 Y434.93
G1 X147.57 Y432.33
G1 X153.42 Y438.18
G1 X150.17 Y436.88
G1 X153.42 Y440.78
G1 X169.02 Y444.03
G1 X172.92 Y437.53
G1 X165.12 Y435.58
G1 X161.87 Y434.93
G1 X171.62 Y438.83
G1 X170.97 Y427.78
G1 X159.27 Y418.68
G1 X165.12 Y418.68
G1 X164.47 Y421.93
G1 X165.77 Y419.98
G1 X165.77 Y423.23
G1 X165.12 Y421.93
G1 X159.27 Y418.03
G1 X160.57 Y418.03
G1 X161.87 Y418.03
G1 X164.47 Y418.03
G1 X163.17 Y421.28
G1 X167.72 Y434.28
G1 X170.97 Y434.93
G1 X168.37 Y436.88
G1 X154.72 Y440.13
G1 X157.32 Y438.18
G1 X155.37 Y432.98
G1 X157.32 Y435.58
G1 X156.67 Y433.63
G1 X141.07 Y439.48
G1 X135.87 Y445.33
G1 X133.92 Y445.98
G1 X133.27 Y438.18
G1 X128.07 Y442.73
G1 X133.27 Y442.73
G1 X140.42 Y438.18
G1 X135.22 Y437.53
G1 X133.27 Y442.08
G1 X129.37 Y442.08
G1 X132.62 Y440.13
G1 X132.62 Y423.23
G1 X130.67 Y421.93
G1 X122.87 Y421.28
G1 X131.97 Y431.68
G1 X142.37 Y431.68
G1 X141.72 Y427.13
G1 X138.47 Y424.53
G1 X135.87 Y424.53
G1 X136.52 Y422.58
G1 X139.77 Y425.18
G1 X143.67 Y424.53
G1 X144.97 Y428.43
G1 X143.02 Y431.03
G1 X143.02 Y426.48
G1 X144.32 Y427.78
G1 X139.77 Y415.43
G1 X142.37 Y418.03
G1 X139.12 Y416.73
G1 X139.77 Y417.38
G1 X135.87 Y416.73
G1 X135.22 Y418.03
G1 X129.37 Y419.33
G1 X126.77 Y418.03
G1 X128.72 Y418.03
G1 X125.47 Y416.73
G1 X124.17 Y416.73
G1 X122.87 Y418.03
G1 X124.82 Y418.68
G1 X126.12 Y418.68
G1 X121.57 Y426.48
G1 X130.67 Y424.53
G1 X127.42 Y441.43
G1 X130.02 Y439.48
G1 X147.57 Y446.63
G1 X149.52 Y451.18
G1 X156.02 Y451.18
G1 X145.62 Y448.58
G1 X128.07 Y445.33
G1 X128.72 Y445.98
G1 X126.12 Y445.98
G1 X126.12 Y428.43
G1 X118.32 Y421.28
G1 X117.67 Y422.58
G1 X114.42 Y419.98
G1 X109.22 Y419.33
G1 X107.92 Y419.98
G1 X111.17 Y419.98
G1 X111.82 Y419.33
G1 X114.42 Y421.28
G1 X111.17 Y420.63
G1 X104.66 Y421.93
G1 X102.06 Y419.98
G1 X98.81 Y417.38
G1 X94.26 Y417.38
G1 X94.91 Y415.43
G1 X92.31 Y416.08
G1 X89.71 Y416.08
G1 X86.46 Y416.73
G1 X86.46 Y416.08
G1 X85.16 Y416.73
G1 X76.06 Y414.78
G1 X69.56 Y432.33
G1 X65.66 Y451.18
G1 X64.36 Y436.23
G1 X81.91 Y443.38
G1 X91.01 Y447.28
G1 X98.16 Y445.33
G1 Z0
G1 X-94.26 Y479.14
G1 Z1
G1 X-94.26 Y479.14
G1 X-85.16 Y479.14
G1 X-94.91 Y477.19
G1 X-95.56 Y479.79
G1 X-84.51 Y479.79
G1 X-87.76 Y483.69
G1 X-93.61 Y480.44
G1 X-112.47 Y480.44
G1 X-127.42 Y468.73
G1 X-126.12 Y471.99
G1 X-118.97 Y475.89
G1 X-102.06 Y479.79
G1 X-111.17 Y479.79
G1 X-106.61 Y477.19
G1 X-103.36 Y479.14
G1 X-101.41 Y478.49
G1 X-101.41 Y479.79
G1 X-91.66 Y477.19
G1 X-88.41 Y477.84
G1 X-92.96 Y478.49
G1 X-94.26 Y478.49
G1 X-94.91 Y479.14
G1 X-97.51 Y479.14
G1 X-116.37 Y475.89
G1 X-118.32 Y475.24
G1 X-121.57 Y475.89
G1 X-122.22 Y474.59
G1 X-124.82 Y473.94
G1 X-124.17 Y471.99
G1 X-122.87 Y473.29
G1 X-122.87 Y472.64
G1 X-121.57 Y473.94
G1 X-127.42 Y460.28
G1 X-122.22 Y459.63
G1 X-125.47 Y457.03
G1 X-111.82 Y448.58
G1 X-113.77 Y454.43
G1 X-108.57 Y449.23
G1 X-89.71 Y453.13
G1 X-83.21 Y447.28
G1 X-93.61 Y451.83
G1 X-90.36 Y449.23
G1 X-85.16 Y450.53
G1 X-83.86 Y448.58
G1 X-85.16 Y455.08
G1 X-90.36 Y453.78
G1 X-102.71 Y451.18
G1 X-111.82 Y449.88
G1 X-112.47 Y452.48
G1 X-107.27 Y451.83
G1 X-98.81 Y447.93
G1 X-108.57 Y449.88
G1 X-112.47 Y447.93
G1 X-114.42 Y454.43
G1 X-114.42 Y447.93
G1 X-117.02 Y451.18
G1 X-120.27 Y452.48
G1 X-115.72 Y448.58
G1 X-100.76 Y447.93
G1 X-87.76 Y452.48
G1 X-76.06 Y456.38
G1 X-74.76 Y453.78
G1 X-78.01 Y455.08
G1 X-78.66 Y453.78
G1 X-79.31 Y455.73
G1 X-82.56 Y447.93
G1 X-89.06 Y453.13
G1 X-91.66 Y451.83
G1 X-87.76 Y450.53
G1 X-93.61 Y449.88
G1 X-96.86 Y451.18
G1 X-100.11 Y449.23
G1 X-102.06 Y449.88
G1 X-96.21 Y449.88
G1 X-95.56 Y451.18
G1 X-94.26 Y451.18
G1 X-94.26 Y450.53
G1 X-93.61 Y451.18
G1 X-95.56 Y453.13
G1 X-99.46 Y453.13
G1 X-93.61 Y439.48
G1 X-101.41 Y442.08
G1 X-101.41 Y423.23
G1 X-100.11 Y410.88
G1 X-89.71 Y412.83
G1 X-100.11 Y414.78
G1 X-96.86 Y412.18
G1 X-99.46 Y412.83
G1 X-100.11 Y423.23
G1 X-104.66 Y440.78
G1 X-111.17 Y431.03
G1 X-111.82 Y424.53
G1 X-107.92 Y415.43
G1 X-104.66 Y415.43
G1 X-104.01 Y412.83
G1 X-98.81 Y412.18
G1 X-97.51 Y413.48
G1 X-93.61 Y412.83
G1 X-91.01 Y412.18
G1 X-83.86 Y415.43
G1 X-85.16 Y412.83
G1 X-85.81 Y414.13
G1 X-84.51 Y414.78
G1 X-86.46 Y422.58
G1 X-75.41 Y421.93
G1 X-77.36 Y423.23
G1 X-74.76 Y422.58
G1 X-76.06 Y423.88
G1 X-85.16 Y423.23
G1 X-86.46 Y418.68
G1 X-86.46 Y421.28
G1 X-87.11 Y420.63
G1 X-87.11 Y418.68
G1 X-85.16 Y415.43
G1 X-85.81 Y418.03
G1 X-85.81 Y418.68
G1 X-81.91 Y413.48
G1 X-98.81 Y410.23
G1 X-96.86 Y412.83
G1 X-94.91 Y412.18
G1 X-93.61 Y410.88
G1 X-95.56 Y410.23
G1 X-103.36 Y412.18
G1 X-102.06 Y423.88
G1 X-102.71 Y431.68
G1 X-105.96 Y439.48
G1 X-109.87 Y435.58
G1 X-110.52 Y422.58
G1 X-105.96 Y438.18
G1 X-104.01 Y440.13
G1 X-102.06 Y437.53
G1 X-102.06 Y432.98
G1 X-109.22 Y435.58
G1 X-107.92 Y436.88
G1 X-103.36 Y427.78
G1 X-104.01 Y432.98
G1 X-105.31 Y436.88
G1 X-108.57 Y438.18
G1 X-108.57 Y431.03
G1 X-109.22 Y429.73
G1 X-109.22 Y428.43
G1 X-110.52 Y429.08
G1 X-111.17 Y431.68
G1 X-110.52 Y435.58
G1 X-105.96 Y440.13
G1 X-92.96 Y443.38
G1 X-92.96 Y440.13
G1 X-92.31 Y442.73
G1 X-96.21 Y440.78
G1 X-93.61 Y440.78
G1 X-93.61 Y441.43
G1 X-94.91 Y444.68
G1 X-93.61 Y444.03
G1 X-105.96 Y435.58
G1 X-104.66 Y431.68
G1 X-104.01 Y429.73
G1 X-102.06 Y440.13
G1 X-103.36 Y440.13
G1 X-102.71 Y439.48
G1 X-103.36 Y438.18
G1 X-104.66 Y437.53
G1 X-104.66 Y438.83
G1 X-109.22 Y453.78
G1 X-112.47 Y453.78
G1 X-109.22 Y451.18
G1 X-106.61 Y451.18
G1 X-113.12 Y454.43
G1 X-111.82 Y454.43
G1 X-107.27 Y445.98
G1 X-111.82 Y447.28
G1 X-102.71 Y449.23
G1 X-91.01 Y449.23
G1 X-90.36 Y449.88
G1 X-74.11 Y455.73
G1 X-74.11 Y453.78
G1 X-73.46 Y455.08
G1 X-73.46 Y453.78
G1 X-72.16 Y454.43
G1 X-87.11 Y458.33
G1 X-87.11 Y453.13
G1 X-89.71 Y454.43
G1 X-87.76 Y457.03
G1 X-88.41 Y455.08
G1 X-84.51 Y456.38
G1 X-84.51 Y454.43
G1 X-83.21 Y454.43
G1 X-81.91 Y451.83
G1 X-83.86 Y451.18
G1 X-81.91 Y447.93
G1 X-82.56 Y447.28
G1 X-83.21 Y447.93
G1 X-83.21 Y449.23
G1 X-81.91 Y450.53
G1 X-81.26 Y452.48
G1 X-74.76 Y454.43
G1 X-75.41 Y456.38
G1 X-85.16 Y465.48
G1 X-82.56 Y458.98
G1 X-84.51 Y461.58
G1 X-85.16 Y464.18
G1 X-83.21 Y462.88
G1 X-80.61 Y458.98
G1 X-83.86 Y458.33
G1 X-84.51 Y460.93
G1 X-83.86 Y451.83
G1 X-83.21 Y451.83
G1 X-71.51 Y445.33
G1 X-75.41 Y446.63
G1 X-74.11 Y445.33
G1 X-72.81 Y445.33
G1 X-77.36 Y446.63
G1 X-81.26 Y444.03
G1 X-81.91 Y447.28
G1 X-80.61 Y445.33
G1 X-73.46 Y444.68
G1 X-76.71 Y445.33
G1 X-78.01 Y444.68
G1 X-79.31 Y444.68
G1 X-80.61 Y444.03
G1 X-79.31 Y444.03
G1 X-77.36 Y444.68
G1 X-89.71 Y455.73
G1 X-92.31 Y451.83
G1 X-92.31 Y453.78
G1 X-89.71 Y452.48
G1 X-88.41 Y453.13
G1 X-85.81 Y454.43
G1 X-86.46 Y454.43
G1 X-85.81 Y453.78
G1 X-85.16 Y462.88
G1 X-81.26 Y460.93
G1 X-82.56 Y460.28
G1 X-83.21 Y461.58
G1 X-81.91 Y460.28
G1 X-81.91 Y457.68
G1 X-83.21 Y457.68
G1 X-80.61 Y453.78
G1 X-83.21 Y453.13
G1 X-82.56 Y453.78
G1 X-83.21 Y456.38
G1 X-79.96 Y455.73
G1 X-79.31 Y454.43
G1 X-78.66 Y455.08
G1 X-81.26 Y448.58
G1 X-96.86 Y448.58
G1 X-99.46 Y446.63
G1 X-117.02 Y453.78
G1 X-130.02 Y464.83
G1 X-129.37 Y469.38
G1 X-125.47 Y473.29
G1 X-125.47 Y466.13
G1 X-123.52 Y471.33
G1 X-128.72 Y464.18
G1 X-130.02 Y467.43
G1 X-126.12 Y462.23
G1 X-123.52 Y460.28
G1 X-127.42 Y459.63
G1 X-125.47 Y458.33
G1 X-123.52 Y457.68
G1 X-129.37 Y463.53
G1 X-115.07 Y451.18
G1 X-115.07 Y449.23
G1 X-120.92 Y451.83
G1 X-121.57 Y453.78
G1 X-120.27 Y453.13
G1 X-118.97 Y455.08
G1 X-124.17 Y462.88
G1 X-124.17 Y461.58
G1 X-124.82 Y460.93
G1 X-122.87 Y460.28
G1 X-123.52 Y460.93
G1 X-122.87 Y461.58
G1 X-121.57 Y460.28
G1 X-122.22 Y458.98
G1 X-123.52 Y457.03
G1 X-124.82 Y457.03
G1 X-126.12 Y458.33
G1 X-125.47 Y458.98
G1 X-116.37 Y451.83
G1 X-115.72 Y450.53
G1 X-117.02 Y450.53
G1 X-117.67 Y449.88
G1 X-116.37 Y448.58
G1 X-125.47 Y456.38
G1 X-128.07 Y459.63
G1 X-127.42 Y462.23
G1 X-126.12 Y466.78
G1 X-128.72 Y468.73
G1 X-126.77 Y471.33
G1 X-128.72 Y467.43
G1 X-126.77 Y468.08
G1 X-126.12 Y469.38
G1 X-126.12 Y468.73
G1 X-124.82 Y470.03
G1 X-120.27 Y481.74
G1 X-125.47 Y478.49
G1 X-112.47 Y477.84
G1 X-107.92 Y479.14
G1 X-106.61 Y479.14
G1 X-105.96 Y478.49
G1 X-105.31 Y478.49
G1 X-101.41 Y491.49
G1 X-104.66 Y489.54
G1 X-102.71 Y489.54
G1 X-108.57 Y481.09
G1 X-111.17 Y481.09
G1 X-109.87 Y482.39
G1 X-107.92 Y481.09
G1 X-105.31 Y481.09
G1 X-104.01 Y486.94
G1 X-94.91 Y486.94
G1 X-84.51 Y480.44
G1 X-89.06 Y480.44
G1 X-88.41 Y482.39
G1 X-91.01 Y483.04
G1 X-92.31 Y481.74
G1 X-101.41 Y481.09
G1 X-104.01 Y481.09
G1 X-98.16 Y488.24
G1 X-101.41 Y490.19
G1 X-99.46 Y489.54
G1 X-100.76 Y491.49
G1 X-84.51 Y483.04
G1 X-81.26 Y487.59
G1 X-81.26 Y490.84
G1 X-79.31 Y494.09
G1 X-79.31 Y497.34
G1 X-78.01 Y502.54
G1 X-77.36 Y501.24
G1 X-75.41 Y514.24
G1 X-81.26 Y516.19
G1 X-72.81 Y511.64
G1 X-71.51 Y512.29
G1 X-68.91 Y516.19
G1 X-68.26 Y518.79
G1 X-53.31 Y522.04
G1 X-51.36 Y523.99
G1 X-52.66 Y520.74
G1 X-51.36 Y521.39
G1 X-50.71 Y524.64
G1 X-51.36 Y532.44
G1 X-42.26 Y531.79
G1 X-60.46 Y538.29
G1 X-47.46 Y538.29
G1 X-44.86 Y540.89
G1 X-48.76 Y540.89
G1 X-53.31 Y546.10
G1 X-64.36 Y548.70
G1 X-59.16 Y550.65
G1 X-61.76 Y548.70
G1 X-54.61 Y547.40
G1 X-57.86 Y550.00
G1 X-60.46 Y549.35
G1 X-63.71 Y550.65
G1 X-61.76 Y551.95
G1 X-69.56 Y569.50
G1 X-66.31 Y566.90
G1 X-66.96 Y564.95
G1 X-70.86 Y559.75
G1 X-69.56 Y568.20
G1 X-78.66 Y572.10
G1 X-81.26 Y568.20
G1 X-81.26 Y563.00
G1 X-77.36 Y559.75
G1 X-80.61 Y564.95
G1 X-80.61 Y568.20
G1 X-78.66 Y565.60
G1 X-78.01 Y561.70
G1 X-68.26 Y555.85
G1 X-68.26 Y553.25
G1 X-66.96 Y554.55
G1 X-66.96 Y556.50
G1 X-79.31 Y553.25
G1 X-79.96 Y550.00
G1 X-81.91 Y550.65
G1 X-80.61 Y555.85
G1 X-87.11 Y559.10
G1 X-81.91 Y559.10
G1 X-81.26 Y556.50
G1 X-92.96 Y548.05
G1 X-92.96 Y546.10
G1 X-104.01 Y548.70
G1 X-104.66 Y553.25
G1 X-92.96 Y563.00
G1 X-91.66 Y549.35
G1 X-83.21 Y558.45
G1 X-91.66 Y569.50
G1 X-105.31 Y572.10
G1 X-106.61 Y570.80
G1 X-106.61 Y563.65
G1 X-108.57 Y574.05
G1 X-113.12 Y573.40
G1 X-125.47 Y573.40
G1 X-125.47 Y577.30
G1 X-131.97 Y587.70
G1 X-131.97 Y581.85
G1 X-125.47 Y585.10
G1 X-130.02 Y583.80
G1 X-128.07 Y586.40
G1 X-129.37 Y593.55
G1 X-133.27 Y595.50
G1 X-129.37 Y589.65
G1 X-130.67 Y587.05
G1 X-131.32 Y591.60
G1 X-118.97 Y591.60
G1 X-118.97 Y593.55
G1 X-133.27 Y596.80
G1 X-137.17 Y600.05
G1 X-141.72 Y615.01
G1 X-141.72 Y609.80
G1 X-142.37 Y614.35
G1 X-144.97 Y612.40
G1 X-152.12 Y612.40
G1 X-148.87 Y610.45
G1 X-152.12 Y610.45
G1 X-149.52 Y611.75
G1 X-142.37 Y611.10
G1 X-143.02 Y613.05
G1 X-144.32 Y612.40
G1 X-152.77 Y606.55
G1 X-143.67 Y589.65
G1 X-145.62 Y570.80
G1 X-146.27 Y564.30
G1 X-143.67 Y557.15
G1 X-146.27 Y549.35
G1 X-141.72 Y538.29
G1 X-146.27 Y540.24
G1 X-143.02 Y535.04
G1 X-150.82 Y519.44
G1 X-147.57 Y509.04
G1 X-144.97 Y527.89
G1 X-149.52 Y518.14
G1 X-147.57 Y514.24
G1 X-148.22 Y520.09
G1 X-146.92 Y517.49
G1 X-147.57 Y521.39
G1 X-150.17 Y533.09
G1 X-144.32 Y533.09
G1 X-146.27 Y539.59
G1 X-142.37 Y558.45
G1 X-144.97 Y562.35
G1 X-145.62 Y566.90
G1 X-147.57 Y579.90
G1 X-144.97 Y590.95
G1 X-151.47 Y598.10
G1 X-149.52 Y599.40
G1 X-151.47 Y599.40
G1 X-150.17 Y600.05
G1 X-152.12 Y600.05
G1 X-152.12 Y604.60
G1 X-134.57 Y611.10
G1 X-134.57 Y598.75
G1 X-130.02 Y596.80
G1 X-124.82 Y595.50
G1 X-120.92 Y594.85
G1 X-122.87 Y579.90
G1 X-119.62 Y574.70
G1 X-120.27 Y579.25
G1 X-117.67 Y574.05
G1 X-117.02 Y581.85
G1 X-118.32 Y577.95
G1 X-118.32 Y576.00
G1 X-105.31 Y590.30
G1 X-105.96 Y594.20
G1 X-100.76 Y594.20
G1 X-100.76 Y585.10
G1 X-96.21 Y584.45
G1 X-94.26 Y592.25
G1 X-94.91 Y594.20
G1 X-95.56 Y596.80
G1 X-96.21 Y606.55
G1 X-106.61 Y590.95
G1 X-106.61 Y592.90
G1 X-109.87 Y594.20
G1 X-107.92 Y590.95
G1 X-107.92 Y589.65
G1 X-118.32 Y594.20
G1 X-118.32 Y592.90
G1 X-126.77 Y592.90
G1 X-122.87 Y582.50
G1 X-111.82 Y585.10
G1 X-114.42 Y583.15
G1 X-111.82 Y583.80
G1 X-106.61 Y579.25
G1 X-105.96 Y575.35
G1 X-96.21 Y573.40
G1 X-92.31 Y577.30
G1 X-94.91 Y580.55
G1 X-96.21 Y583.15
G1 X-100.76 Y582.50
G1 X-87.76 Y573.40
G1 X-91.01 Y573.40
G1 X-93.61 Y572.75
G1 X-94.91 Y574.05
G1 X-93.61 Y575.35
G1 X-96.21 Y577.95
G1 X-104.01 Y576.65
G1 X-103.36 Y585.10
G1 X-102.06 Y584.45
G1 X-106.61 Y583.80
G1 Z0
G1 X97.51 Y446.63
G1 Z1
G1 X94.91 Y447.28
G1 X90.36 Y446.63
G1 X81.91 Y442.08
G1 X87.11 Y443.38
G1 X85.16 Y445.33
G1 X97.51 Y444.03
G1 X92.96 Y445.98
G1 X90.36 Y445.98
G1 X92.31 Y445.33
G1 X94.26 Y445.98
G1 X97.51 Y444.68
G1 X107.27 Y442.73
G1 X94.26 Y431.68
G1 X91.01 Y445.33
G1 X89.06 Y445.33
G1 X85.16 Y443.38
G1 X83.21 Y444.68
G1 X81.91 Y444.03
G1 X76.06 Y443.38
G1 X72.16 Y441.43
G1 X76.71 Y442.73
G1 X80.61 Y443.38
G1 X81.26 Y442.08
G1 X79.96 Y442.08
G1 X79.31 Y442.73
G1 X76.06 Y442.08
G1 X73.46 Y441.43
G1 X88.41 Y442.08
G1 X99.46 Y445.98
G1 X95.56 Y447.28
G1 X94.91 Y446.63
G1 X93.61 Y447.93
G1 X91.66 Y447.93
G1 X92.31 Y447.28
G1 X73.46 Y443.38
G1 X66.96 Y440.13
G1 X66.31 Y445.98
G1 X70.21 Y449.88
G1 X68.26 Y445.98
G1 X68.26 Y447.28
G1 X70.21 Y462.23
G1 X61.76 Y445.33
G1 X64.36 Y440.78
G1 X63.71 Y447.28
G1 X66.31 Y441.43
G1 X65.01 Y436.88
G1 X78.66 Y425.83
G1 X73.46 Y423.23
G1 X78.01 Y423.88
G1 X62.41 Y432.33
G1 X56.56 Y431.68
G1 X56.56 Y429.73
G1 X57.86 Y427.78
G1 X57.21 Y431.03
G1 X59.81 Y431.03
G1 X64.36 Y444.68
G1 X70.86 Y451.18
G1 X72.16 Y466.13
G1 X79.96 Y453.78
G1 X78.01 Y452.48
G1 X79.31 Y451.18
G1 X80.61 Y451.18
G1 X81.91 Y464.18
G1 X72.16 Y449.23
G1 X69.56 Y451.83
G1 X68.26 Y460.93
G1 X55.91 Y449.88
G1 X53.31 Y444.68
G1 X55.26 Y443.38
G1 X54.61 Y442.08
G1 X54.61 Y443.38
G1 X52.66 Y445.98
G1 X53.96 Y446.63
G1 X48.76 Y454.43
G1 X47.46 Y453.13
G1 X48.11 Y456.38
G1 X46.81 Y454.43
G1 X46.81 Y453.78
G1 X49.41 Y447.93
G1 X50.71 Y445.33
G1 X52.66 Y447.93
G1 X49.41 Y449.23
G1 X50.06 Y449.88
G1 X50.71 Y455.73
G1 X48.11 Y451.83
G1 X48.76 Y450.53
G1 X49.41 Y451.18
G1 X63.06 Y464.18
G1 X63.06 Y448.58
G1 X55.91 Y456.38
G1 X62.41 Y458.33
G1 X58.51 Y455.08
G1 X62.41 Y451.18
G1 X61.76 Y454.43
G1 X53.31 Y466.13
G1 X71.51 Y464.18
G1 X66.96 Y468.08
G1 X81.26 Y464.18
G1 X95.56 Y455.73
G1 X101.41 Y457.68
G1 X104.01 Y457.68
G1 X105.96 Y457.68
G1 X91.01 Y454.43
G1 X84.51 Y453.13
G1 X87.76 Y454.43
G1 X89.71 Y455.08
G1 X90.36 Y455.08
G1 X91.66 Y455.73
G1 X92.31 Y455.08
G1 X94.91 Y455.73
G1 X96.21 Y457.03
G1 X98.16 Y457.03
G1 X100.11 Y457.68
G1 X98.16 Y457.68
G1 X96.86 Y464.83
G1 X115.72 Y460.93
G1 X117.02 Y461.58
G1 X128.07 Y466.78
G1 X133.27 Y465.48
G1 X130.67 Y467.43
G1 X136.52 Y467.43
G1 X138.47 Y483.04
G1 X150.82 Y488.89
G1 X149.52 Y489.54
G1 X150.82 Y489.54
G1 X156.67 Y484.99
G1 X151.47 Y469.38
G1 X148.22 Y473.29
G1 X141.72 Y472.64
G1 X140.42 Y470.68
G1 X156.67 Y473.94
G1 X154.07 Y472.64
G1 X159.27 Y472.64
G1 X161.87 Y470.68
G1 X163.17 Y470.68
G1 X165.77 Y470.68
G1 X166.42 Y471.33
G1 X171.62 Y471.33
G1 X174.22 Y471.99
G1 X161.22 Y484.34
G1 X154.07 Y473.94
G1 X142.37 Y478.49
G1 X139.77 Y471.99
G1 X143.67 Y477.19
G1 X150.17 Y473.29
G1 X152.12 Y473.94
G1 X146.27 Y490.19
G1 X143.67 Y489.54
G1 X144.32 Y490.84
G1 X144.97 Y488.89
G1 X142.37 Y488.24
G1 X125.47 Y484.99
G1 X133.92 Y496.69
G1 X133.92 Y491.49
G1 X128.72 Y503.84
G1 X130.02 Y501.89
G1 X130.02 Y503.19
G1 X131.97 Y501.89
G1 X126.77 Y487.59
G1 X126.12 Y496.04
G1 X136.52 Y487.59
G1 X134.57 Y492.14
G1 X136.52 Y501.89
G1 X133.92 Y502.54
G1 X131.97 Y503.19
G1 X135.22 Y499.94
G1 X154.07 Y504.49
G1 X150.17 Y501.24
G1 X144.97 Y499.94
G1 X151.47 Y503.19
G1 X152.77 Y501.89
G1 X155.37 Y502.54
G1 X158.62 Y505.14
G1 X164.47 Y504.49
G1 X169.67 Y506.44
G1 X150.82 Y505.14
G1 X138.47 Y502.54
G1 X131.97 Y505.14
G1 X124.17 Y487.59
G1 X137.17 Y477.19
G1 X131.97 Y468.73
G1 X126.77 Y468.08
G1 X136.52 Y471.99
G1 X136.52 Y475.24
G1 X127.42 Y488.24
G1 X137.17 Y480.44
G1 X135.87 Y486.29
G1 X131.97 Y484.99
G1 X144.32 Y478.49
G1 X145.62 Y485.64
G1 X137.82 Y486.94
G1 X136.52 Y485.64
G1 X144.32 Y488.24
G1 X137.17 Y489.54
G1 X139.12 Y488.24
G1 X137.17 Y488.89
G1 X130.02 Y486.94
G1 X127.42 Y494.09
G1 X127.42 Y490.84
G1 X128.72 Y488.89
G1 X127.42 Y479.14
G1 X133.27 Y479.14
G1 X130.02 Y482.39
G1 X130.02 Y479.79
G1 X135.22 Y468.08
G1 X132.62 Y468.08
G1 X128.07 Y478.49
G1 X143.02 Y477.19
G1 X147.57 Y473.94
G1 X142.37 Y473.94
G1 X143.67 Y475.89
G1 X145.62 Y474.59
G1 X157.32 Y489.54
G1 X153.42 Y489.54
G1 X155.37 Y488.24
G1 X152.12 Y488.89
G1 X148.87 Y486.29
G1 X153.42 Y476.54
G1 X150.82 Y478.49
G1 X161.22 Y491.49
G1 X155.37 Y490.19
G1 X163.17 Y473.29
G1 X156.02 Y475.89
G1 X159.27 Y479.14
G1 X168.37 Y481.74
G1 X170.97 Y496.69
G1 X179.43 Y481.09
G1 X172.92 Y476.54
G1 X174.22 Y486.94
G1 X186.58 Y497.34
G1 X183.33 Y496.69
G1 X176.17 Y496.69
G1 X172.92 Y488.24
G1 X171.62 Y475.24
G1 X189.83 Y481.74
G1 X208.68 Y479.14
G1 X216.48 Y481.74
G1 X215.83 Y479.79
G1 X206.08 Y483.04
G1 X210.63 Y480.44
G1 X206.73 Y479.79
G1 X198.93 Y486.29
G1 X201.53 Y501.24
G1 X198.28 Y502.54
G1 X198.28 Y503.84
G1 X204.78 Y495.39
G1 X210.63 Y497.34
G1 X217.13 Y496.04
G1 X217.13 Y497.34
G1 X219.08 Y497.99
G1 X234.68 Y486.94
G1 X236.63 Y486.29
G1 X228.18 Y485.64
G1 X226.23 Y492.14
G1 X241.18 Y498.64
G1 X248.33 Y509.04
G1 X248.33 Y507.09
G1 X246.38 Y507.74
G1 X247.68 Y509.69
G1 X248.99 Y509.04
G1 X248.99 Y507.09
G1 X245.73 Y501.24
G1 X241.83 Y504.49
G1 X234.68 Y499.94
G1 X240.53 Y502.54
G1 X235.33 Y499.29
G1 X248.33 Y496.04
G1 X247.68 Y493.44
G1 X248.33 Y492.14
G1 X247.68 Y495.39
G1 X247.03 Y494.74
G1 X245.73 Y496.04
G1 X246.38 Y490.84
G1 X235.98 Y488.89
G1 X242.48 Y488.89
G1 X233.38 Y471.99
G1 X227.53 Y454.43
G1 X230.78 Y458.33
G1 X230.13 Y460.28
G1 X230.13 Y458.33
G1 X229.48 Y458.98
G1 X229.48 Y457.68
G1 X226.88 Y464.83
G1 X231.43 Y462.88
G1 X231.43 Y464.83
G1 X234.68 Y468.73
G1 X233.38 Y481.09
G1 X237.28 Y481.09
G1 X235.33 Y479.14
G1 X235.33 Y480.44
G1 X234.03 Y480.44
G1 X230.13 Y481.09
G1 X238.58 Y484.99
G1 X237.28 Y483.04
G1 X238.58 Y483.69
G1 X243.78 Y481.09
G1 X243.78 Y487.59
G1 X247.03 Y483.04
G1 X252.24 Y485.64
G1 X248.33 Y484.99
G1 X247.68 Y476.54
G1 X246.38 Y476.54
G1 X247.03 Y478.49
G1 X256.79 Y494.74
G1 X257.44 Y503.84
G1 X256.79 Y502.54
G1 X256.79 Y503.84
G1 X258.74 Y499.29
G1 X256.79 Y501.24
G1 X259.39 Y501.89
G1 X258.09 Y503.84
G1 X258.09 Y501.89
G1 X258.74 Y500.59
G1 X258.74 Y501.24
G1 X260.69 Y501.89
G1 X252.24 Y486.29
G1 X242.48 Y484.99
G1 X243.13 Y485.64
G1 X242.48 Y486.29
G1 X245.08 Y494.09
G1 X235.98 Y495.39
G1 X235.98 Y490.19
G1 X230.78 Y490.19
G1 X224.93 Y497.34
G1 X223.63 Y495.39
G1 X224.28 Y494.74
G1 X226.88 Y493.44
G1 X238.58 Y497.99
G1 X234.68 Y497.99
G1 X227.53 Y494.74
G1 X224.93 Y496.69
G1 X222.98 Y492.14
G1 X222.33 Y486.29
G1 X219.73 Y479.79
G1 X204.78 Y484.99
G1 X186.58 Y479.79
G1 X181.38 Y476.54
G1 X183.98 Y494.74
G1 X188.53 Y495.39
G1 X199.58 Y493.44
G1 X198.28 Y490.84
G1 X197.63 Y493.44
G1 X200.88 Y490.84
G1 X200.88 Y484.99
G1 X206.73 Y494.09
G1 X217.78 Y478.49
G1 X213.23 Y479.79
G1 X208.03 Y477.19
G1 X191.13 Y473.94
G1 X181.38 Y474.59
G1 X184.63 Y470.03
G1 X180.73 Y469.38
G1 X180.08 Y472.64
G1 X181.38 Y472.64
G1 X182.03 Y472.64
G1 X182.03 Y468.73
G1 X180.08 Y469.38
G1 X174.87 Y486.29
G1 X180.73 Y495.39
G1 X176.82 Y495.39
G1 X172.27 Y495.39
G1 X165.77 Y489.54
G1 X165.77 Y473.29
G1 X157.32 Y476.54
G1 X156.02 Y481.74
G1 X155.37 Y476.54
G1 X152.77 Y480.44
G1 X154.72 Y480.44
G1 X153.42 Y478.49
G1 X150.17 Y476.54
G1 X149.52 Y474.59
G1 X151.47 Y473.29
G1 X144.97 Y472.64
G1 X145.62 Y470.68
G1 X147.57 Y471.33
G1 X149.52 Y470.68
G1 X151.47 Y471.99
G1 X151.47 Y471.33
G1 X152.77 Y471.99
G1 X153.42 Y470.03
G1 X159.92 Y471.33
G1 X160.57 Y471.33
G1 X158.62 Y470.03
G1 X157.32 Y470.03
G1 X157.97 Y471.33
G1 X159.92 Y470.03
G1 X141.72 Y469.38
G1 X144.97 Y466.78
G1 X145.62 Y468.73
G1 X147.57 Y468.73
G1 X145.62 Y467.43
G1 X144.32 Y468.08
G1 X139.77 Y465.48
G1 X135.87 Y465.48
G1 X134.57 Y466.78
G1 X133.27 Y466.78
G1 X131.97 Y466.78
G1 X127.42 Y466.13
G1 X117.67 Y463.53
G1 X109.87 Y470.03
G1 X98.16 Y460.93
G1 X103.36 Y462.88
G1 X115.07 Y473.29
G1 X122.87 Y466.78
G1 X126.77 Y467.43
G1 X131.32 Y477.84
G1 X133.92 Y473.29
G1 X135.22 Y476.54
G1 X144.32 Y484.99
G1 X144.32 Y482.39
G1 X141.72 Y481.74
G1 X143.67 Y483.69
G1 X139.77 Y483.04
G1 X139.12 Y481.74
G1 X141.72 Y483.04
G1 X139.77 Y484.99
G1 X139.12 Y483.69
G1 X131.32 Y485.64
G1 X128.07 Y481.09
G1 X122.22 Y486.94
G1 X121.57 Y481.09
G1 X113.77 Y484.99
G1 X121.57 Y484.99
G1 X123.52 Y480.44
G1 X108.57 Y479.79
G1 X100.76 Y481.74
G1 X119.62 Y481.09
G1 X107.92 Y483.69
G1 X104.01 Y487.59
G1 X104.01 Y484.99
G1 X104.66 Y486.29
G1 X104.66 Y484.99
G1 X105.31 Y485.64
G1 X106.61 Y484.34
G1 X105.96 Y484.34
G1 X105.31 Y482.39
G1 X102.71 Y482.39
G1 X100.11 Y483.04
G1 X99.46 Y483.04
G1 X98.16 Y482.39
G1 X84.51 Y481.74
G1 X83.86 Y482.39
G1 X91.01 Y482.39
G1 X94.26 Y484.34
G1 X95.56 Y483.04
G1 X94.91 Y485.64
G1 X81.91 Y491.49
G1 X75.41 Y486.29
G1 X79.31 Y487.59
G1 X81.26 Y486.29
G1 X77.36 Y485.64
G1 X74.76 Y489.54
G1 X71.51 Y489.54
G1 X75.41 Y486.94
G1 X74.76 Y488.89
G1 X73.46 Y488.89
G1 X74.11 Y488.24
G1 X80.61 Y488.24
G1 X82.56 Y486.29
G1 X85.16 Y487.59
G1 X82.56 Y486.94
G1 X83.21 Y487.59
G1 X81.91 Y487.59
G1 X81.26 Y486.94
G1 X81.91 Y486.29
G1 X80.61 Y485.64
G1 X78.01 Y486.29
G1 X78.01 Y486.29
G1 X69.56 Y488.89
G1 X70.21 Y491.49
G1 X71.51 Y490.19
G1 X72.81 Y490.19
G1 X74.11 Y490.19
G1 X77.36 Y488.89
G1 X76.06 Y488.89
G1 X76.71 Y489.54
G1 X64.36 Y493.44
G1 X74.76 Y486.94
G1 X74.11 Y486.94
G1 X74.76 Y486.29
G1 X72.81 Y486.94
G1 X64.36 Y470.03
G1 X66.31 Y451.18
G1 X67.61 Y449.23
G1 X68.26 Y453.13
G1 X67.61 Y455.73
G1 X79.31 Y450.53
G1 X90.36 Y466.13
G1 X96.86 Y461.58
G1 X87.76 Y461.58
G1 X85.81 Y456.38
G1 X91.66 Y457.68
G1 X96.86 Y460.28
G1 X91.01 Y458.98
G1 X89.06 Y457.68
G1 X87.11 Y457.68
G1 X91.66 Y460.93
G1 X88.41 Y460.93
G1 X91.01 Y459.63
G1 X96.86 Y460.93
G1 Z0
G1 X-89.06 Y428.43
G1 Z1
G1 X-88.41 Y427.78
G1 X-89.06 Y432.98
G1 X-87.76 Y430.38
G1 X-88.41 Y432.98
G1 X-87.76 Y432.33
G1 X-88.41 Y433.63
G1 X-87.76 Y433.63
G1 X-87.11 Y432.33
G1 X-87.11 Y428.43
G1 X-89.06 Y429.08
G1 X-89.06 Y430.38
G1 X-87.76 Y431.68
G1 X-88.41 Y429.73
G1 X-86.46 Y429.73
G1 X-86.46 Y431.68
G1 X-89.71 Y431.68
G1 X-89.06 Y434.28
G1 X-87.76 Y434.28
G1 X-87.11 Y433.63
G1 X-87.11 Y432.98
G1 X-89.71 Y431.03
G1 X-89.06 Y429.73
G1 X-89.06 Y427.78
G1 X-79.31 Y411.53
G1 X-65.66 Y425.18
G1 X-73.46 Y414.13
G1 X-68.91 Y413.48
G1 X-72.81 Y405.68
G1 X-70.86 Y400.47
G1 X-72.16 Y410.23
G1 X-70.86 Y408.28
G1 X-70.86 Y406.33
G1 X-70.86 Y403.08
G1 X-69.56 Y399.17
G1 X-88.41 Y396.57
G1 X-92.31 Y401.13
G1 X-89.06 Y401.13
G1 X-90.36 Y400.47
G1 X-92.31 Y388.12
G1 X-89.71 Y382.92
G1 X-87.76 Y371.87
G1 X-89.71 Y373.82
G1 X-89.71 Y371.87
G1 X-88.41 Y373.17
G1 X-84.51 Y379.02
G1 X-68.91 Y367.97
G1 X-61.11 Y379.02
G1 X-61.76 Y384.22
G1 X-58.51 Y386.82
G1 X-65.01 Y377.72
G1 X-61.76 Y379.02
G1 X-65.01 Y376.42
G1 X-62.41 Y375.77
G1 X-64.36 Y371.22
G1 X-66.96 Y369.92
G1 X-76.06 Y369.27
G1 X-76.71 Y372.52
G1 X-82.56 Y375.12
G1 X-69.56 Y367.32
G1 X-72.16 Y367.32
G1 X-64.36 Y375.77
G1 X-63.71 Y373.82
G1 X-65.66 Y371.22
G1 X-66.31 Y373.17
G1 X-65.01 Y372.52
G1 X-68.26 Y370.57
G1 X-69.56 Y371.22
G1 X-63.71 Y377.07
G1 X-62.41 Y377.72
G1 X-61.76 Y376.42
G1 X-62.41 Y376.42
G1 X-61.76 Y377.07
G1 X-63.06 Y388.77
G1 X-60.46 Y381.62
G1 X-59.81 Y384.22
G1 X-61.11 Y385.52
G1 X-59.16 Y386.82
G1 X-61.11 Y386.82
G1 X-52.66 Y391.37
G1 X-48.76 Y390.72
G1 X-52.66 Y388.12
G1 X-52.01 Y390.72
G1 X-46.81 Y386.82
G1 X-50.06 Y386.17
G1 X-51.36 Y389.42
G1 X-37.71 Y390.07
G1 X-39.66 Y392.67
G1 X-39.66 Y390.72
G1 X-42.91 Y390.72
G1 X-40.31 Y391.37
G1 X-40.31 Y392.02
G1 X-41.61 Y392.02
G1 X-41.61 Y391.37
G1 X-43.56 Y390.72
G1 X-39.01 Y388.12
G1 X-38.36 Y392.67
G1 X-41.61 Y386.82
G1 X-49.41 Y385.52
G1 X-50.06 Y388.77
G1 X-48.76 Y386.82
G1 X-46.16 Y384.87
G1 X-48.76 Y384.87
G1 X-46.81 Y390.72
G1 X-50.06 Y392.02
G1 X-50.71 Y390.72
G1 X-51.36 Y390.72
G1 X-60.46 Y392.67
G1 X-56.56 Y395.92
G1 X-57.21 Y401.13
G1 X-55.26 Y401.13
G1 X-55.91 Y399.82
G1 X-57.86 Y400.47
G1 X-57.86 Y399.17
G1 X-57.86 Y392.67
G1 X-63.71 Y395.27
G1 X-82.56 Y393.97
G1 X-98.16 Y399.17
G1 X-96.86 Y402.43
G1 X-96.86 Y383.57
G1 X-90.36 Y382.27
G1 X-91.01 Y384.22
G1 X-89.06 Y392.67
G1 X-91.66 Y389.42
G1 X-90.36 Y395.92
G1 X-89.06 Y393.97
G1 X-91.01 Y390.72
G1 X-90.36 Y389.42
G1 X-91.01 Y387.47
G1 X-91.01 Y386.17
G1 X-92.31 Y383.57
G1 X-91.01 Y389.42
G1 X-90.36 Y390.07
G1 X-76.06 Y393.97
G1 X-85.16 Y377.07
G1 X-81.91 Y376.42
G1 X-78.66 Y373.82
G1 X-84.51 Y376.42
G1 X-88.41 Y377.72
G1 X-97.51 Y372.52
G1 X-106.61 Y366.02
G1 X-100.11 Y353.67
G1 X-103.36 Y351.72
G1 X-102.06 Y356.27
G1 X-105.31 Y360.82
G1 X-105.96 Y357.57
G1 X-107.92 Y358.87
G1 X-105.96 Y359.52
G1 X-104.01 Y358.22
G1 X-104.66 Y361.47
G1 X-102.71 Y364.72
G1 X-103.36 Y360.82
G1 X-102.06 Y358.87
G1 X-100.11 Y354.32
G1 X-114.42 Y341.32
G1 X-115.72 Y322.46
G1 X-116.37 Y310.11
G1 X-111.17 Y308.81
G1 X-109.87 Y297.76
G1 X-95.56 Y285.41
G1 X-85.16 Y287.36
G1 X-76.06 Y285.41
G1 X-66.96 Y295.16
G1 X-56.56 Y295.16
G1 X-39.01 Y301.66
G1 X-31.85 Y301.01
G1 X-41.61 Y304.91
G1 X-39.01 Y299.06
G1 X-33.15 Y300.36
G1 X-52.01 Y296.46
G1 X-65.01 Y310.11
G1 X-46.16 Y305.56
G1 X-62.41 Y295.81
G1 X-53.96 Y297.76
G1 X-68.91 Y310.11
G1 X-78.66 Y315.31
G1 X-72.81 Y314.01
G1 X-61.11 Y305.56
G1 X-57.86 Y309.46
G1 X-44.86 Y306.21
G1 X-50.06 Y298.41
G1 X-45.51 Y300.36
G1 X-39.66 Y299.71
G1 X-46.81 Y298.41
G1 X-50.06 Y302.31
G1 X-53.31 Y297.11
G1 X-57.86 Y296.46
G1 X-66.96 Y308.16
G1 X-79.31 Y313.36
G1 X-98.16 Y317.91
G1 X-107.92 Y320.51
G1 X-90.36 Y312.71
G1 X-95.56 Y316.61
G1 X-99.46 Y317.26
G1 X-115.07 Y307.51
G1 X-114.42 Y314.01
G1 X-117.67 Y318.56
G1 X-102.71 Y315.96
G1 X-86.46 Y306.21
G1 X-67.61 Y303.61
G1 X-77.36 Y287.36
G1 X-72.81 Y289.31
G1 X-78.01 Y285.41
G1 X-82.56 Y304.26
G1 X-101.41 Y300.36
G1 X-97.51 Y288.01
G1 X-90.36 Y286.71
G1 X-93.61 Y301.01
G1 X-81.91 Y299.06
G1 X-81.91 Y287.36
G1 X-90.36 Y288.66
G1 X-107.92 Y295.16
G1 X-109.87 Y304.26
G1 X-91.01 Y308.16
G1 X-72.16 Y308.81
G1 X-90.36 Y314.01
G1 X-81.91 Y322.46
G1 X-91.01 Y317.26
G1 X-90.36 Y321.81
G1 X-75.41 Y315.31
G1 X-81.91 Y321.81
G1 X-81.26 Y318.56
G1 X-83.21 Y319.21
G1 X-86.46 Y321.81
G1 X-89.71 Y319.86
G1 X-87.11 Y319.86
G1 X-85.81 Y321.81
G1 X-78.66 Y317.91
G1 X-80.61 Y318.56
G1 X-87.76 Y308.81
G1 X-81.91 Y308.81
G1 X-77.36 Y305.56
G1 X-68.91 Y309.46
G1 X-80.61 Y299.06
G1 X-76.06 Y288.66
G1 X-68.91 Y295.81
G1 X-69.56 Y290.61
G1 X-61.76 Y294.51
G1 X-66.96 Y294.51
G1 X-67.61 Y291.91
G1 X-65.66 Y293.86
G1 X-63.71 Y293.86
G1 X-59.81 Y306.21
G1 X-48.11 Y305.56
G1 X-51.36 Y302.96
G1 X-57.86 Y302.96
G1 X-62.41 Y296.46
G1 X-65.66 Y305.56
G1 X-70.86 Y306.86
G1 X-76.71 Y291.91
G1 X-73.46 Y289.96
G1 X-69.56 Y293.86
G1 X-68.91 Y291.91
G1 X-67.61 Y293.21
G1 X-68.26 Y295.16
G1 X-68.91 Y300.36
G1 X-74.11 Y291.26
G1 X-74.76 Y293.86
G1 X-71.51 Y303.61
G1 X-90.36 Y301.66
G1 X-88.41 Y287.36
G1 X-83.86 Y286.71
G1 X-85.81 Y285.41
G1 X-81.26 Y286.06
G1 X-80.61 Y294.51
G1 X-92.96 Y299.71
G1 X-103.36 Y293.86
G1 X-107.92 Y299.06
G1 X-108.57 Y301.66
G1 X-93.61 Y306.86
G1 X-107.92 Y297.11
G1 X-103.36 Y295.16
G1 X-106.61 Y298.41
G1 X-106.61 Y301.66
G1 X-100.76 Y293.21
G1 X-103.36 Y292.56
G1 X-88.41 Y280.86
G1 X-79.31 Y278.26
G1 X-83.21 Y281.51
G1 X-88.41 Y281.51
G1 X-89.71 Y280.86
G1 X-91.66 Y282.81
G1 X-95.56 Y284.11
G1 X-102.06 Y290.61
G1 X-105.31 Y291.91
G1 X-105.96 Y293.86
G1 X-104.01 Y291.91
G1 X-102.06 Y288.66
G1 X-100.11 Y288.01
G1 X-102.06 Y289.31
G1 X-96.86 Y297.11
G1 X-92.31 Y289.96
G1 X-94.26 Y298.41
G1 X-82.56 Y292.56
G1 X-82.56 Y288.01
G1 X-88.41 Y290.61
G1 X-88.41 Y295.16
G1 X-82.56 Y299.71
G1 X-87.11 Y301.66
G1 X-91.01 Y307.51
G1 X-100.11 Y301.01
G1 X-84.51 Y305.56
G1 X-101.41 Y303.61
G1 X-110.52 Y308.81
G1 X-98.81 Y312.71
G1 X-85.81 Y319.21
G1 X-90.36 Y319.21
G1 X-96.21 Y315.96
G1 X-89.71 Y315.31
G1 X-85.81 Y313.36
G1 X-78.66 Y312.71
G1 X-96.86 Y307.51
G1 X-108.57 Y308.16
G1 X-93.61 Y313.36
G1 X-100.11 Y308.16
G1 X-94.91 Y310.76
G1 X-103.36 Y309.46
G1 X-105.31 Y318.56
G1 X-108.57 Y319.86
G1 X-115.07 Y318.56
G1 X-115.72 Y310.76
G1 X-110.52 Y310.76
G1 X-111.17 Y299.06
G1 X-114.42 Y307.51
G1 X-111.82 Y308.16
G1 X-111.82 Y301.66
G1 X-113.77 Y310.11
G1 X-112.47 Y310.11
G1 X-107.27 Y318.56
G1 X-113.12 Y318.56
G1 X-114.42 Y334.17
G1 X-109.87 Y344.57
G1 X-112.47 Y342.62
G1 X-116.37 Y336.12
G1 X-117.02 Y322.46
G1 X-117.67 Y323.76
G1 X-117.67 Y326.36
G1 X-117.67 Y328.31
G1 X-117.02 Y330.92
G1 X-114.42 Y325.06
G1 X-115.07 Y322.46
G1 X-114.42 Y330.27
G1 X-113.12 Y332.22
G1 X-113.12 Y323.11
G1 X-115.07 Y321.81
G1 X-111.82 Y313.36
G1 X-105.31 Y315.31
G1 X-104.01 Y321.16
G1 X-100.76 Y319.21
G1 X-96.21 Y318.56
G1 X-98.81 Y319.86
G1 X-103.36 Y321.16
G1 X-99.46 Y312.06
G1 X-102.06 Y314.66
G1 X-102.06 Y312.06
G1 X-110.52 Y312.06
G1 X-105.31 Y314.01
G1 X-107.92 Y315.96
G1 X-105.96 Y315.96
G1 X-106.61 Y318.56
G1 X-104.66 Y320.51
G1 X-106.61 Y320.51
G1 X-107.27 Y319.86
G1 X-107.92 Y319.21
G1 X-109.22 Y319.21
G1 X-115.72 Y308.16
G1 X-113.12 Y302.96
G1 X-102.71 Y314.66
G1 X-103.36 Y312.71
G1 X-97.51 Y315.31
G1 X-96.86 Y314.01
G1 X-91.01 Y310.11
G1 X-85.81 Y312.06
G1 X-92.96 Y312.06
G1 X-87.11 Y310.76
G1 X-85.16 Y309.46
G1 X-81.26 Y310.76
G1 X-75.41 Y312.71
G1 X-78.66 Y314.66
G1 X-78.01 Y313.36
G1 X-74.76 Y312.06
G1 X-73.46 Y312.06
G1 X-72.16 Y314.01
G1 X-62.41 Y306.86
G1 X-70.86 Y294.51
G1 X-70.21 Y297.11
G1 X-79.96 Y302.31
G1 X-73.46 Y302.31
G1 X-81.26 Y285.41
G1 X-78.01 Y287.36
G1 X-77.36 Y290.61
G1 X-75.41 Y293.21
G1 X-81.26 Y301.01
G1 X-76.06 Y298.41
G1 X-78.01 Y295.16
G1 X-79.31 Y297.11
G1 X-77.36 Y297.76
G1 X-79.31 Y299.71
G1 X-79.96 Y298.41
G1 X-87.76 Y292.56
G1 X-83.21 Y292.56
G1 X-83.86 Y289.31
G1 X-87.11 Y290.61
G1 X-89.71 Y289.31
G1 X-91.01 Y296.46
G1 X-83.21 Y303.61
G1 X-86.46 Y302.96
G1 X-81.26 Y307.51
G1 X-85.81 Y306.86
G1 X-92.96 Y305.56
G1 X-98.16 Y297.76
G1 X-98.16 Y300.36
G1 X-100.76 Y299.71
G1 X-104.01 Y297.11
G1 X-103.36 Y295.81
G1 X-102.06 Y302.96
G1 X-105.31 Y300.36
G1 X-104.01 Y307.51
G1 X-96.86 Y306.21
G1 X-95.56 Y304.91
G1 X-92.31 Y307.51
G1 X-94.26 Y310.11
G1 X-96.86 Y308.16
G1 X-98.16 Y308.16
G1 X-103.36 Y308.81
G1 X-105.31 Y308.81
G1 X-109.22 Y299.06
G1 X-109.22 Y297.76
G1 X-104.66 Y294.51
G1 X-95.56 Y288.01
G1 X-93.61 Y288.01
G1 X-91.01 Y288.01
G1 X-92.31 Y288.66
G1 X-95.56 Y288.66
G1 X-97.51 Y289.96
G1 X-93.61 Y289.31
G1 X-95.56 Y294.51
G1 X-93.61 Y297.76
G1 X-92.96 Y295.81
G1 X-92.96 Y294.51
G1 X-96.86 Y291.91
G1 X-99.46 Y299.71
G1 X-94.91 Y299.06
G1 X-95.56 Y301.01
G1 X-94.26 Y301.01
G1 X-94.26 Y299.71
G1 X-82.56 Y297.76
G1 X-85.16 Y295.16
G1 X-89.06 Y297.11
G1 X-87.76 Y297.11
G1 X-86.46 Y297.76
G1 X-75.41 Y308.16
G1 X-81.26 Y306.86
G1 X-80.61 Y303.61
G1 X-76.06 Y303.61
G1 X-72.16 Y307.51
G1 X-66.31 Y306.86
G1 X-70.86 Y303.61
G1 X-71.51 Y298.41
G1 X-74.11 Y293.86
G1 X-75.41 Y297.11
G1 X-68.26 Y290.61
G1 X-70.86 Y289.96
G1 X-75.41 Y285.41
G1 X-76.06 Y286.06
G1 X-75.41 Y286.71
G1 X-70.86 Y291.91
G1 X-70.21 Y291.26
G1 X-70.86 Y290.61
G1 X-70.21 Y290.61
G1 X-72.16 Y293.21
G1 X-62.41 Y308.81
G1 X-59.81 Y308.16
G1 X-51.36 Y297.76
G1 X-52.66 Y302.31
G1 X-48.11 Y297.76
G1 X-51.36 Y295.16
G1 X-50.71 Y299.71
G1 X-47.46 Y304.26
G1 X-39.66 Y303.61
G1 X-37.06 Y302.31
G1 X-39.66 Y302.31
G1 X-38.36 Y299.71
G1 X-35.10 Y301.66
G1 X-41.61 Y300.36
G1 X-42.91 Y302.31
G1 X-39.01 Y302.96
G1 X-31.20 Y315.96
G1 X-44.21 Y312.06
G1 X-40.96 Y314.66
G1 X-24.70 Y312.71
G1 X-24.05 Y315.31
G1 X-29.90 Y312.06
G1 X-34.45 Y313.36
G1 X-42.26 Y312.06
G1 X-60.46 Y316.61
G1 X-58.51 Y314.01
G1 X-55.91 Y314.66
G1 X-52.66 Y315.31
G1 X-41.61 Y314.66
G1 X-44.21 Y313.36
G1 Z0
G1 X-152.77 Y410.88
G1 Z1
G1 X-152.77 Y410.88
G1 X-156.02 Y415.43
G1 X-153.42 Y407.63
G1 X-152.12 Y388.77
G1 X-150.82 Y369.92
G1 X-148.22 Y365.37
G1 X-150.82 Y382.27
G1 X-151.47 Y386.17
G1 X-151.47 Y395.27
G1 X-156.02 Y412.18
G1 X-150.82 Y408.28
G1 X-152.12 Y414.13
G1 X-154.72 Y414.78
G1 X-153.42 Y412.83
G1 X-152.12 Y411.53
G1 X-152.12 Y410.23
G1 X-153.42 Y410.88
G1 X-150.82 Y413.48
G1 X-156.67 Y416.73
G1 X-154.72 Y416.08
G1 X-156.67 Y419.33
G1 X-154.07 Y400.47
G1 X-156.67 Y404.38
G1 X-153.42 Y396.57
G1 X-153.42 Y393.97
G1 X-152.77 Y387.47
G1 X-152.12 Y378.37
G1 X-148.22 Y381.62
G1 X-149.52 Y377.72
G1 X-150.17 Y369.92
G1 X-148.87 Y358.22
G1 X-148.87 Y349.12
G1 X-146.92 Y344.57
G1 X-146.92 Y335.47
G1 X-146.27 Y336.77
G1 X-146.27 Y339.37
G1 X-148.22 Y355.62
G1 X-148.22 Y338.72
G1 X-147.57 Y336.77
G1 X-147.57 Y341.32
G1 X-147.57 Y343.27
G1 X-147.57 Y345.22
G1 X-146.92 Y354.32
G1 X-137.82 Y354.32
G1 X-141.07 Y346.52
G1 X-139.12 Y334.17
G1 X-141.07 Y336.77
G1 X-139.12 Y349.77
G1 X-141.07 Y352.37
G1 X-138.47 Y365.37
G1 X-141.07 Y379.02
G1 X-141.07 Y382.27
G1 X-139.12 Y379.67
G1 X-140.42 Y382.27
G1 X-139.12 Y370.57
G1 X-141.07 Y369.27
G1 X-139.12 Y364.07
G1 X-140.42 Y361.47
G1 X-139.77 Y364.72
G1 X-141.72 Y362.77
G1 X-141.07 Y366.67
G1 X-141.72 Y371.22
G1 X-141.07 Y375.12
G1 X-141.72 Y382.27
G1 X-151.47 Y374.47
G1 X-151.47 Y372.52
G1 X-148.87 Y391.37
G1 X-150.82 Y388.12
G1 X-150.82 Y384.87
G1 X-152.12 Y382.92
G1 X-152.12 Y383.57
G1 X-138.47 Y396.57
G1 X-150.17 Y405.68
G1 X-141.07 Y401.13
G1 X-141.72 Y403.73
G1 X-135.22 Y400.47
G1 X-153.42 Y397.87
G1 X-154.07 Y399.82
G1 X-153.42 Y399.17
G1 X-153.42 Y401.13
G1 X-156.67 Y405.03
G1 X-155.37 Y405.03
G1 X-155.37 Y406.98
G1 X-153.42 Y409.58
G1 X-154.07 Y407.63
G1 X-154.07 Y406.33
G1 X-165.77 Y391.37
G1 X-162.52 Y410.23
G1 X-160.57 Y418.68
G1 X-165.12 Y417.38
G1 X-170.97 Y419.98
G1 X-169.02 Y414.78
G1 X-169.67 Y402.43
G1 X-169.67 Y383.57
G1 X-167.07 Y376.42
G1 X-169.67 Y368.62
G1 X-167.72 Y364.72
G1 X-169.67 Y359.52
G1 X-161.87 Y342.62
G1 X-166.42 Y360.82
G1 X-162.52 Y371.22
G1 X-169.67 Y365.37
G1 X-169.02 Y346.52
G1 X-167.72 Y333.52
G1 X-161.22 Y317.91
G1 X-163.82 Y320.51
G1 X-163.82 Y323.11
G1 X-162.52 Y325.06
G1 X-163.82 Y340.67
G1 X-163.17 Y344.57
G1 X-165.12 Y347.82
G1 X-164.47 Y341.97
G1 X-151.47 Y335.47
G1 X-155.37 Y322.46
G1 X-155.37 Y303.61
G1 X-153.42 Y297.76
G1 X-155.37 Y281.51
G1 X-152.77 Y272.41
G1 X-155.37 Y267.21
G1 X-154.07 Y275.66
G1 X-155.37 Y277.61
G1 X-155.37 Y279.56
G1 X-152.77 Y288.01
G1 X-155.37 Y295.16
G1 X-155.37 Y286.06
G1 X-155.37 Y284.76
G1 X-152.77 Y280.86
G1 X-152.77 Y273.71
G1 X-154.07 Y272.41
G1 X-154.07 Y270.46
G1 X-155.37 Y262.01
G1 X-153.42 Y243.15
G1 X-153.42 Y238.60
G1 X-150.82 Y233.40
G1 X-161.87 Y232.10
G1 X-160.57 Y228.85
G1 X-157.32 Y232.10
G1 X-161.87 Y229.50
G1 X-162.52 Y230.80
G1 X-159.92 Y231.45
G1 X-150.82 Y235.35
G1 X-152.12 Y239.90
G1 X-148.87 Y241.20
G1 X-146.92 Y243.15
G1 X-148.87 Y242.50
G1 X-150.82 Y236.65
G1 X-154.07 Y234.70
G1 X-153.42 Y237.30
G1 X-150.82 Y239.90
G1 X-150.82 Y237.95
G1 X-152.77 Y238.60
G1 X-152.12 Y237.30
G1 X-152.12 Y236.65
G1 X-152.77 Y236.00
G1 X-153.42 Y236.00
G1 X-152.77 Y234.05
G1 X-157.97 Y230.80
G1 X-159.27 Y228.85
G1 X-156.67 Y232.10
G1 X-157.97 Y229.50
G1 X-163.82 Y230.80
G1 X-160.57 Y228.20
G1 X-159.92 Y228.85
G1 X-161.22 Y229.50
G1 X-161.87 Y228.85
G1 X-161.22 Y228.20
G1 X-159.27 Y233.40
G1 X-156.67 Y233.40
G1 X-154.72 Y234.05
G1 X-153.42 Y249.65
G1 X-153.42 Y252.25
G1 X-154.07 Y257.45
G1 X-154.72 Y262.66
G1 X-154.07 Y265.91
G1 X-154.07 Y267.86
G1 X-153.42 Y269.81
G1 X-153.42 Y260.71
G1 X-153.42 Y258.76
G1 X-153.42 Y255.50
G1 X-154.07 Y254.20
G1 X-154.72 Y245.10
G1 X-154.72 Y243.15
G1 X-154.72 Y240.55
G1 X-154.72 Y239.25
G1 X-154.07 Y236.65
G1 X-154.07 Y237.95
G1 X-148.22 Y243.80
G1 X-148.22 Y241.20
G1 X-152.12 Y237.95
G1 X-155.37 Y254.85
G1 X-155.37 Y256.15
G1 X-154.07 Y263.96
G1 X-154.07 Y260.71
G1 X-154.07 Y260.71
G1 X-155.37 Y276.31
G1 X-152.77 Y270.46
G1 X-154.72 Y282.81
G1 X-153.42 Y279.56
G1 X-153.42 Y276.96
G1 X-154.72 Y275.66
G1 X-153.42 Y284.76
G1 X-154.72 Y291.91
G1 X-150.82 Y306.21
G1 X-154.72 Y304.91
G1 X-155.37 Y298.41
G1 X-154.07 Y295.81
G1 X-154.07 Y298.41
G1 X-152.77 Y310.76
G1 X-154.72 Y305.56
G1 X-153.42 Y312.06
G1 X-154.72 Y318.56
G1 X-153.42 Y327.66
G1 X-156.02 Y337.42
G1 X-152.77 Y349.12
G1 X-156.67 Y366.02
G1 X-157.32 Y379.67
G1 X-156.67 Y384.87
G1 X-157.97 Y393.32
G1 X-157.97 Y379.02
G1 X-155.37 Y374.47
G1 X-153.42 Y355.62
G1 X-153.42 Y353.67
G1 X-156.02 Y349.77
G1 X-152.77 Y343.27
G1 X-152.77 Y336.77
G1 X-151.47 Y321.16
G1 X-153.42 Y323.11
G1 X-154.72 Y311.41
G1 X-154.72 Y309.46
G1 X-154.72 Y307.51
G1 X-154.07 Y305.56
G1 X-154.07 Y301.66
G1 X-152.77 Y300.36
G1 X-152.12 Y304.91
G1 X-152.77 Y303.61
G1 X-152.12 Y310.76
G1 X-150.17 Y310.76
G1 X-151.47 Y308.16
G1 X-150.82 Y310.11
G1 X-151.47 Y310.11
G1 X-151.47 Y309.46
G1 X-156.02 Y328.31
G1 X-153.42 Y341.97
G1 X-152.77 Y345.87
G1 X-153.42 Y350.42
G1 X-155.37 Y349.77
G1 X-156.02 Y347.17
G1 X-156.02 Y342.62
G1 X-156.02 Y338.72
G1 X-154.72 Y338.07
G1 X-154.07 Y341.97
G1 X-155.37 Y347.17
G1 X-155.37 Y341.32
G1 X-154.72 Y340.67
G1 X-152.12 Y322.46
G1 X-151.47 Y331.57
G1 X-151.47 Y332.87
G1 X-151.47 Y334.17
G1 X-153.42 Y336.12
G1 X-153.42 Y340.02
G1 X-152.12 Y340.02
G1 X-152.12 Y336.77
G1 X-155.37 Y328.31
G1 X-155.37 Y327.01
G1 X-152.77 Y323.11
G1 X-152.77 Y324.41
G1 X-153.42 Y325.06
G1 X-156.02 Y332.22
G1 X-156.02 Y333.52
G1 X-156.02 Y335.47
G1 X-155.37 Y336.77
G1 X-155.37 Y338.07
G1 X-153.42 Y334.82
G1 X-153.42 Y335.47
G1 X-154.72 Y330.92
G1 X-154.72 Y327.01
G1 X-154.07 Y328.31
G1 X-167.72 Y340.02
G1 X-165.12 Y358.87
G1 X-163.82 Y363.42
G1 X-162.52 Y349.12
G1 X-152.77 Y357.57
G1 X-152.77 Y355.62
G1 X-156.67 Y353.67
G1 X-154.07 Y351.72
G1 X-156.02 Y357.57
G1 X-156.67 Y362.12
G1 X-156.02 Y374.47
G1 X-156.02 Y382.27
G1 X-156.67 Y380.97
G1 X-156.67 Y379.67
G1 X-156.67 Y377.72
G1 X-156.67 Y373.17
G1 X-157.32 Y371.87
G1 X-157.32 Y369.92
G1 X-157.32 Y365.37
G1 X-170.97 Y369.92
G1 X-167.72 Y384.22
G1 X-169.02 Y395.92
G1 X-167.72 Y405.68
G1 X-170.32 Y412.83
G1 X-168.37 Y418.03
G1 X-169.67 Y418.03
G1 X-170.32 Y421.28
G1 X-169.67 Y419.98
G1 X-161.87 Y416.73
G1 X-161.22 Y411.53
G1 X-165.12 Y413.48
G1 X-163.82 Y394.62
G1 X-163.82 Y375.77
G1 X-163.82 Y370.57
G1 X-168.37 Y369.92
G1 X-168.37 Y371.22
G1 X-169.02 Y374.47
G1 X-168.37 Y377.72
G1 X-168.37 Y379.02
G1 X-164.47 Y382.27
G1 X-164.47 Y386.82
G1 X-164.47 Y388.77
G1 X-165.12 Y391.37
G1 X-169.02 Y384.87
G1 X-167.72 Y381.62
G1 X-167.72 Y380.32
G1 X-164.47 Y375.77
G1 X-164.47 Y380.32
G1 X-168.37 Y394.62
G1 X-167.07 Y399.17
G1 X-170.97 Y412.18
G1 X-162.52 Y414.78
G1 X-161.87 Y421.28
G1 X-163.82 Y418.68
G1 X-162.52 Y419.33
G1 X-162.52 Y418.68
G1 X-168.37 Y413.48
G1 X-169.67 Y421.28
G1 X-168.37 Y419.98
G1 X-157.32 Y404.38
G1 X-156.02 Y401.78
G1 X-164.47 Y409.58
G1 X-163.82 Y412.18
G1 X-163.82 Y407.63
G1 X-163.82 Y405.03
G1 X-162.52 Y402.43
G1 X-163.17 Y395.27
G1 X-161.87 Y399.82
G1 X-160.57 Y415.43
G1 X-161.22 Y418.03
G1 X-164.47 Y415.43
G1 X-165.12 Y416.73
G1 X-163.17 Y416.08
G1 X-163.82 Y416.73
G1 X-162.52 Y403.08
G1 X-163.17 Y401.78
G1 X-163.17 Y399.17
G1 X-163.82 Y400.47
G1 X-167.07 Y392.67
G1 X-165.12 Y401.78
G1 X-181.38 Y399.82
G1 X-180.08 Y401.78
G1 X-174.22 Y401.13
G1 X-178.78 Y402.43
G1 X-179.43 Y383.57
G1 X-190.48 Y375.12
G1 X-188.53 Y380.97
G1 X-189.83 Y379.67
G1 X-189.18 Y381.62
G1 X-188.53 Y362.77
G1 X-189.83 Y353.02
G1 X-187.88 Y349.12
G1 X-187.23 Y335.47
G1 X-189.18 Y343.27
G1 X-189.83 Y346.52
G1 X-186.58 Y356.92
G1 X-188.53 Y375.77
G1 X-169.67 Y380.32
G1 X-169.02 Y383.57
G1 X-168.37 Y384.87
G1 X-169.02 Y390.07
G1 X-168.37 Y393.32
G1 X-167.07 Y395.27
G1 X-168.37 Y395.92
G1 X-168.37 Y397.87
G1 X-169.02 Y399.17
G1 X-169.02 Y400.47
G1 X-169.02 Y404.38
G1 X-168.37 Y405.68
G1 X-169.02 Y408.28
G1 X-167.72 Y409.58
G1 X-170.97 Y417.38
G1 X-170.32 Y414.13
G1 X-169.67 Y413.48
G1 X-170.97 Y405.68
G1 X-170.32 Y406.98
G1 X-170.32 Y404.38
G1 X-170.32 Y392.02
G1 X-170.32 Y374.47
G1 X-169.02 Y372.52
G1 X-169.67 Y370.57
G1 X-168.37 Y367.32
G1 X-165.12 Y366.02
G1 X-164.47 Y363.42
G1 X-165.77 Y361.47
G1 X-163.82 Y357.57
G1 X-163.82 Y354.97
G1 X-163.82 Y352.37
G1 X-165.12 Y350.42
G1 X-165.12 Y354.32
G1 X-168.37 Y360.17
G1 X-168.37 Y357.57
G1 X-167.72 Y342.62
G1 X-163.17 Y327.66
G1 X-163.17 Y325.06
G1 X-161.87 Y323.11
G1 X-161.22 Y328.31
G1 X-162.52 Y332.87
G1 X-165.12 Y336.12
G1 X-168.37 Y326.36
G1 X-166.42 Y328.31
G1 X-169.02 Y330.92
G1 X-169.02 Y327.01
G1 X-187.23 Y322.46
G1 X-187.88 Y329.62
G1 X-189.18 Y327.66
G1 X-187.88 Y323.11
G1 X-198.28 Y325.06
G1 X-195.03 Y327.01
G1 X-197.63 Y334.82
G1 X-194.38 Y332.22
G1 X-199.58 Y334.17
G1 X-198.28 Y332.22
G1 X-195.68 Y332.22
G1 X-195.68 Y330.27
G1 X-195.03 Y331.57
G1 X-195.03 Y328.31
G1 X-195.68 Y327.01
G1 X-194.38 Y325.06
G1 X-196.98 Y326.36
G1 X-215.83 Y322.46
G1 X-211.93 Y327.01
G1 X-211.93 Y323.76
G1 X-208.68 Y325.06
G1 X-205.43 Y325.06
G1 X-202.18 Y323.11
G1 X-207.38 Y323.11
G1 X-202.83 Y324.41
G1 X-201.53 Y324.41
G1 X-194.38 Y323.76
G1 X-195.68 Y320.51
G1 X-196.98 Y320.51
G1 X-195.68 Y321.81
G1 X-195.68 Y323.11
G1 X-195.03 Y323.11
G1 X-196.33 Y325.06
G1 X-197.63 Y324.41
G1 X-195.68 Y325.06
G1 X-196.98 Y331.57
G1 X-203.48 Y331.57
G1 X-203.48 Y329.62
G1 X-202.83 Y330.92
G1 X-202.83 Y329.62
G1 X-220.38 Y327.01
G1 X-219.73 Y329.62
G1 X-211.28 Y328.96
G1 X-211.28 Y324.41
G1 X-213.23 Y327.01
G1 X-212.58 Y324.41
G1 X-214.53 Y327.01
G1 X-213.88 Y323.76
G1 X-212.58 Y323.76
G1 X-213.23 Y324.41
G1 X-211.28 Y330.27
G1 X-215.18 Y329.62
G1 X-214.53 Y336.12
G1 X-217.13 Y330.27
G1 X-215.83 Y330.92
G1 X-215.83 Y332.22
G1 X-215.18 Y320.51
G1 X-213.23 Y329.62
G1 X-211.93 Y329.62
G1 X-213.23 Y327.66
G1 X-214.53 Y328.31
G1 X-213.88 Y328.31
G1 X-215.18 Y327.01
G1 X-215.18 Y326.36
G1 X-217.13 Y321.81
G1 X-215.83 Y323.11
G1 X-215.83 Y323.76
G1 X-216.48 Y321.16
G1 X-215.83 Y321.81
G1 X-215.83 Y321.16
G1 X-206.73 Y323.76
G1 X-208.03 Y324.41
G1 X-210.63 Y325.06
G1 X-210.63 Y325.71
G1 X-202.18 Y325.71
G1 X-201.53 Y325.06
G1 X-202.18 Y323.76
G1 X-199.58 Y320.51
G1 X-196.98 Y321.16
G1 X-196.33 Y323.11
G1 Z0
G1 X151.47 Y379.02
G1 Z1
G1 X151.47 Y379.02
G1 X149.52 Y379.02
G1 X148.87 Y379.67
G1 X149.52 Y380.97
G1 X156.67 Y379.67
G1 X155.37 Y379.02
G1 X153.42 Y379.67
G1 X146.92 Y380.97
G1 X163.82 Y380.97
G1 X168.37 Y377.72
G1 X161.87 Y377.72
G1 X156.02 Y379.02
G1 X156.67 Y378.37
G1 X158.62 Y379.02
G1 X161.22 Y379.02
G1 X162.52 Y378.37
G1 X163.82 Y378.37
G1 X177.47 Y380.97
G1 X178.78 Y380.97
G1 X175.52 Y379.67
G1 X172.92 Y379.67
G1 X169.67 Y377.72
G1 X169.02 Y377.72
G1 X170.32 Y379.02
G1 X170.97 Y379.02
G1 X170.97 Y379.02
G1 X185.93 Y379.02
G1 X187.88 Y380.97
G1 X180.73 Y380.97
G1 X177.47 Y377.72
G1 X174.22 Y377.72
G1 X174.87 Y378.37
G1 X176.17 Y378.37
G1 X195.03 Y377.07
G1 X199.58 Y377.07
G1 X198.93 Y382.27
G1 X197.63 Y380.32
G1 X196.98 Y380.32
G1 X195.68 Y379.67
G1 X203.48 Y379.02
G1 X206.08 Y381.62
G1 X207.38 Y362.77
G1 X204.78 Y360.82
G1 X203.48 Y341.97
G1 X195.03 Y333.52
G1 X181.38 Y339.37
G1 X164.47 Y339.37
G1 X145.62 Y336.77
G1 X126.77 Y336.12
G1 X115.72 Y340.02
G1 X102.71 Y336.12
G1 X94.91 Y340.67
G1 X107.92 Y338.72
G1 X111.17 Y340.02
G1 X92.31 Y337.42
G1 X84.51 Y338.72
G1 X66.31 Y334.17
G1 X65.01 Y338.72
G1 X55.26 Y338.07
G1 X63.06 Y334.82
G1 X65.66 Y338.72
G1 X70.21 Y336.12
G1 X63.71 Y334.82
G1 X60.46 Y338.07
G1 X64.36 Y337.42
G1 X83.21 Y335.47
G1 X89.06 Y340.67
G1 X96.21 Y339.37
G1 X89.06 Y322.46
G1 X74.11 Y327.01
G1 X89.71 Y325.71
G1 X100.11 Y311.41
G1 X108.57 Y314.66
G1 X116.37 Y311.41
G1 X123.52 Y314.01
G1 X142.37 Y311.41
G1 X161.22 Y310.11
G1 X171.62 Y310.11
G1 X186.58 Y303.61
G1 X193.08 Y302.31
G1 X180.08 Y306.86
G1 X177.47 Y305.56
G1 X170.97 Y306.86
G1 X173.57 Y308.81
G1 X179.43 Y304.91
G1 X182.68 Y304.91
G1 X183.98 Y303.61
G1 X180.73 Y304.26
G1 X179.43 Y323.11
G1 X197.63 Y329.62
G1 X194.38 Y338.07
G1 X175.52 Y337.42
G1 X159.27 Y335.47
G1 X170.32 Y338.72
G1 X175.52 Y338.07
G1 X180.08 Y338.72
G1 X189.18 Y338.72
G1 X193.08 Y338.72
G1 X206.73 Y332.22
G1 X206.08 Y321.16
G1 X202.18 Y333.52
G1 X196.98 Y334.82
G1 X201.53 Y326.36
G1 X202.18 Y332.22
G1 X198.93 Y333.52
G1 X201.53 Y329.62
G1 X200.88 Y332.22
G1 X206.73 Y350.42
G1 X204.78 Y355.62
G1 X211.28 Y352.37
G1 X206.73 Y351.72
G1 X209.33 Y354.97
G1 X207.38 Y354.97
G1 X198.28 Y338.07
G1 X195.68 Y338.07
G1 X195.03 Y334.17
G1 X191.78 Y337.42
G1 X188.53 Y336.77
G1 X169.67 Y334.82
G1 X156.02 Y332.87
G1 X159.92 Y338.07
G1 X164.47 Y337.42
G1 X167.07 Y338.72
G1 X162.52 Y338.07
G1 X158.62 Y335.47
G1 X150.82 Y336.77
G1 X139.12 Y339.37
G1 X123.52 Y338.07
G1 X105.96 Y336.77
G1 X95.56 Y330.27
G1 X114.42 Y334.82
G1 X118.32 Y336.77
G1 X123.52 Y336.77
G1 X135.87 Y336.77
G1 X131.32 Y338.07
G1 X127.42 Y338.07
G1 X122.87 Y340.02
G1 X118.32 Y340.02
G1 X115.07 Y339.37
G1 X108.57 Y334.82
G1 X99.46 Y332.22
G1 X90.36 Y340.02
G1 X80.61 Y332.87
G1 X73.46 Y335.47
G1 X79.96 Y335.47
G1 X85.16 Y338.07
G1 X78.66 Y336.77
G1 X76.71 Y322.46
G1 X80.61 Y324.41
G1 X85.16 Y325.71
G1 X88.41 Y323.11
G1 X87.76 Y325.06
G1 X106.61 Y323.11
G1 X124.17 Y319.86
G1 X143.02 Y320.51
G1 X156.02 Y319.86
G1 X154.72 Y335.47
G1 X135.87 Y330.92
G1 X117.02 Y330.92
G1 X107.92 Y329.62
G1 X120.27 Y336.12
G1 X139.12 Y332.22
G1 X146.92 Y336.12
G1 X152.12 Y336.12
G1 X159.27 Y338.07
G1 X163.82 Y334.82
G1 X157.32 Y334.17
G1 X139.77 Y326.36
G1 X139.77 Y310.11
G1 X131.97 Y312.06
G1 X119.62 Y312.06
G1 X111.82 Y314.01
G1 X94.26 Y314.01
G1 X93.61 Y319.86
G1 X88.41 Y324.41
G1 X86.46 Y336.77
G1 X93.61 Y336.77
G1 X89.06 Y326.36
G1 X107.92 Y323.76
G1 X117.02 Y323.76
G1 X121.57 Y321.16
G1 X125.47 Y320.51
G1 X133.27 Y320.51
G1 X148.87 Y311.41
G1 X167.72 Y311.41
G1 X171.62 Y310.76
G1 X156.67 Y310.76
G1 X140.42 Y319.21
G1 X154.07 Y317.91
G1 X144.97 Y327.66
G1 X156.67 Y332.22
G1 X156.02 Y325.71
G1 X143.67 Y332.22
G1 X129.37 Y321.16
G1 X124.17 Y321.16
G1 X138.47 Y328.96
G1 X120.27 Y328.96
G1 X126.77 Y334.17
G1 X116.37 Y333.52
G1 X113.12 Y338.72
G1 X111.17 Y338.07
G1 X109.22 Y338.72
G1 X96.21 Y337.42
G1 X85.16 Y340.02
G1 X87.11 Y341.32
G1 X89.06 Y340.02
G1 X84.51 Y339.37
G1 X84.51 Y323.11
G1 X87.11 Y323.76
G1 X85.16 Y334.17
G1 X78.01 Y328.96
G1 X68.26 Y334.17
G1 X72.81 Y334.82
G1 X76.06 Y334.17
G1 X73.46 Y332.22
G1 X70.86 Y333.52
G1 X74.11 Y334.17
G1 X75.41 Y330.92
G1 X71.51 Y334.17
G1 X66.31 Y336.77
G1 X59.16 Y335.47
G1 X59.81 Y337.42
G1 X58.51 Y337.42
G1 X56.56 Y340.02
G1 X53.96 Y338.72
G1 X57.21 Y338.72
G1 X59.81 Y339.37
G1 X45.51 Y338.72
G1 X40.31 Y325.71
G1 X50.06 Y329.62
G1 X35.10 Y327.66
G1 X31.85 Y338.72
G1 X13.00 Y338.72
G1 X-3.25 Y342.62
G1 X-11.05 Y348.47
G1 X-1.30 Y346.52
G1 X1.30 Y341.97
G1 X18.20 Y340.67
G1 X16.25 Y343.27
G1 X11.05 Y341.97
G1 X16.90 Y341.32
G1 X-1.95 Y339.37
G1 X-18.85 Y347.82
G1 X-21.45 Y354.97
G1 X-31.85 Y354.32
G1 X-31.85 Y348.47
G1 X-41.61 Y343.27
G1 X-48.11 Y344.57
G1 X-53.31 Y341.97
G1 X-59.16 Y343.27
G1 X-64.36 Y340.67
G1 X-59.16 Y340.67
G1 X-61.76 Y342.62
G1 X-66.31 Y341.32
G1 X-73.46 Y347.17
G1 X-75.41 Y342.62
G1 X-78.66 Y347.17
G1 X-85.16 Y347.17
G1 X-85.16 Y345.22
G1 X-82.56 Y346.52
G1 X-84.51 Y346.52
G1 X-98.81 Y333.52
G1 X-79.96 Y338.07
G1 X-87.11 Y333.52
G1 X-81.26 Y341.97
G1 X-81.26 Y338.72
G1 X-71.51 Y344.57
G1 X-74.11 Y343.92
G1 X-73.46 Y345.87
G1 X-65.01 Y353.67
G1 X-66.31 Y358.22
G1 X-66.96 Y352.37
G1 X-70.86 Y349.77
G1 X-78.66 Y343.92
G1 X-79.31 Y346.52
G1 X-74.11 Y346.52
G1 X-75.41 Y344.57
G1 X-75.41 Y345.87
G1 X-77.36 Y343.27
G1 X-69.56 Y343.27
G1 X-71.51 Y345.22
G1 X-72.81 Y345.22
G1 X-72.81 Y345.87
G1 X-71.51 Y346.52
G1 X-72.81 Y347.17
G1 X-65.01 Y351.07
G1 X-68.91 Y352.37
G1 X-68.26 Y351.07
G1 X-66.96 Y356.27
G1 X-65.66 Y353.67
G1 X-65.01 Y356.92
G1 X-65.66 Y357.57
G1 X-66.31 Y358.87
G1 X-66.96 Y358.22
G1 X-66.96 Y356.92
G1 X-72.16 Y347.82
G1 X-78.01 Y347.17
G1 X-86.46 Y330.27
G1 X-75.41 Y333.52
G1 X-78.01 Y330.27
G1 X-77.36 Y335.47
G1 X-72.81 Y335.47
G1 X-70.86 Y337.42
G1 X-76.06 Y336.12
G1 X-77.36 Y331.57
G1 X-80.61 Y331.57
G1 X-91.01 Y327.01
G1 X-100.11 Y328.96
G1 X-95.56 Y326.36
G1 X-109.87 Y330.27
G1 X-100.76 Y340.02
G1 X-96.21 Y336.77
G1 X-105.96 Y341.32
G1 X-111.82 Y348.47
G1 X-107.92 Y348.47
G1 X-114.42 Y342.62
G1 X-108.57 Y351.07
G1 X-108.57 Y349.12
G1 X-110.52 Y349.77
G1 X-114.42 Y335.47
G1 X-113.12 Y333.52
G1 X-112.47 Y337.42
G1 X-113.77 Y339.37
G1 X-111.17 Y343.27
G1 X-110.52 Y340.67
G1 X-111.82 Y341.32
G1 X-111.82 Y336.77
G1 X-92.96 Y340.02
G1 X-96.21 Y337.42
G1 X-97.51 Y338.72
G1 X-95.56 Y338.72
G1 X-91.66 Y336.12
G1 X-83.86 Y339.37
G1 X-82.56 Y341.32
G1 X-91.01 Y340.02
G1 X-87.11 Y337.42
G1 X-85.16 Y337.42
G1 X-81.91 Y340.02
G1 X-82.56 Y340.67
G1 X-89.06 Y339.37
G1 X-94.91 Y334.82
G1 X-102.71 Y337.42
G1 X-98.81 Y337.42
G1 X-96.86 Y336.12
G1 X-105.96 Y333.52
G1 X-107.92 Y330.27
G1 X-100.76 Y328.96
G1 X-98.81 Y334.82
G1 X-103.36 Y353.67
G1 X-103.36 Y357.57
G1 X-105.31 Y358.22
G1 X-104.66 Y356.27
G1 X-109.87 Y341.32
G1 X-111.17 Y337.42
G1 X-94.91 Y347.17
G1 X-101.41 Y348.47
G1 X-100.76 Y352.37
G1 X-102.06 Y351.07
G1 X-94.26 Y347.82
G1 X-96.21 Y343.92
G1 X-95.56 Y345.87
G1 X-101.41 Y347.82
G1 X-99.46 Y343.27
G1 X-107.27 Y338.07
G1 X-100.76 Y340.67
G1 X-97.51 Y338.07
G1 X-111.82 Y325.71
G1 X-112.47 Y323.11
G1 X-112.47 Y327.66
G1 X-109.22 Y328.31
G1 X-96.86 Y326.36
G1 X-87.11 Y329.62
G1 X-89.71 Y336.12
G1 X-92.96 Y337.42
G1 X-96.21 Y334.82
G1 X-95.56 Y328.31
G1 X-96.86 Y327.66
G1 X-88.41 Y330.92
G1 X-87.76 Y325.71
G1 X-83.86 Y329.62
G1 X-85.16 Y326.36
G1 X-87.11 Y328.31
G1 X-85.16 Y328.96
G1 X-83.86 Y334.17
G1 X-81.91 Y336.12
G1 X-78.01 Y325.71
G1 X-66.31 Y314.66
G1 X-64.36 Y317.26
G1 X-67.61 Y316.61
G1 X-68.91 Y318.56
G1 X-74.11 Y320.51
G1 X-66.96 Y310.76
G1 X-63.06 Y310.76
G1 X-57.86 Y310.11
G1 X-52.66 Y300.36
G1 X-56.56 Y297.76
G1 X-58.51 Y297.76
G1 X-55.91 Y301.66
G1 X-58.51 Y305.56
G1 X-51.36 Y303.61
G1 X-51.36 Y304.91
G1 X-49.41 Y304.91
G1 X-42.26 Y304.91
G1 X-47.46 Y301.01
G1 X-45.51 Y299.71
G1 X-46.16 Y299.71
G1 X-47.46 Y300.36
G1 X-46.16 Y301.66
G1 X-47.46 Y302.96
G1 X-56.56 Y305.56
G1 X-57.86 Y308.81
G1 X-59.16 Y306.86
G1 X-53.31 Y306.86
G1 X-52.01 Y306.21
G1 X-54.61 Y305.56
G1 X-57.86 Y316.61
G1 X-52.01 Y315.96
G1 X-43.56 Y319.86
G1 X-45.51 Y323.11
G1 X-46.81 Y319.21
G1 X-44.21 Y321.81
G1 X-45.51 Y325.71
G1 X-46.16 Y322.46
G1 X-48.76 Y317.91
G1 X-48.76 Y319.21
G1 X-48.11 Y319.86
G1 X-47.46 Y319.21
G1 X-46.81 Y317.91
G1 X-44.21 Y325.06
G1 X-45.51 Y326.36
G1 X-44.86 Y328.31
G1 X-46.16 Y345.22
G1 X-33.15 Y343.27
G1 X-35.76 Y345.22
G1 X-43.56 Y345.22
G1 X-34.45 Y340.02
G1 X-35.76 Y343.27
G1 X-38.36 Y342.62
G1 X-26.65 Y357.57
G1 X-31.20 Y348.47
G1 X-30.55 Y351.72
G1 X-29.25 Y353.67
G1 X-17.55 Y351.72
G1 X-19.50 Y354.32
G1 X-24.05 Y353.67
G1 X-14.30 Y345.87
G1 X-1.30 Y345.22
G1 X-1.30 Y342.62
G1 X10.40 Y341.97
G1 X26.65 Y331.57
G1 X12.35 Y332.22
G1 X5.85 Y339.37
G1 X8.45 Y339.37
G1 X3.25 Y336.12
G1 X-6.50 Y344.57
G1 X-19.50 Y351.07
G1 X-18.20 Y351.07
G1 X-16.25 Y347.82
G1 X-13.00 Y347.17
G1 X-11.05 Y349.77
G1 X-16.25 Y348.47
G1 X-1.30 Y345.87
G1 X-7.15 Y345.87
G1 X-16.25 Y328.96
G1 X-7.15 Y320.51
G1 X0.00 Y323.11
G1 X6.50 Y322.46
G1 X12.35 Y324.41
G1 X28.60 Y324.41
G1 X39.66 Y326.36
G1 X37.71 Y338.07
G1 X46.81 Y332.87
G1 X33.15 Y335.47
G1 X26.65 Y338.07
G1 X16.25 Y337.42
G1 X8.45 Y337.42
G1 X15.60 Y332.87
G1 X24.05 Y332.87
G1 X27.95 Y336.77
G1 X23.40 Y337.42
G1 X19.50 Y336.77
G1 X33.80 Y328.96
G1 X26.65 Y328.96
G1 X37.06 Y338.07
G1 X27.95 Y338.07
G1 X26.65 Y337.42
G1 X37.06 Y336.77
G1 X35.76 Y328.31
G1 X38.36 Y329.62
G1 X47.46 Y329.62
G1 X43.56 Y331.57
G1 X48.11 Y331.57
G1 X43.56 Y332.87
G1 X39.01 Y336.77
G1 X39.01 Y334.82
G1 X41.61 Y335.47
G1 X52.66 Y326.36
G1 X48.11 Y327.66
G1 X44.21 Y325.71
G1 X52.66 Y328.31
G1 Z0
G1 X-12.35 Y326.36
G1 Z1
G1 X-12.35 Y326.36
G1 X-5.20 Y321.81
G1 X-19.50 Y328.31
G1 X-20.80 Y332.22
G1 X-26.00 Y334.17
G1 X-29.25 Y333.52
G1 X-31.20 Y333.52
G1 X-16.25 Y329.62
G1 X-13.00 Y326.36
G1 X-26.65 Y333.52
G1 X-25.35 Y333.52
G1 X-21.45 Y339.37
G1 X-20.15 Y331.57
G1 X-18.85 Y330.92
G1 X-16.25 Y330.92
G1 X-8.45 Y324.41
G1 X10.40 Y322.46
G1 X14.95 Y323.76
G1 X22.75 Y322.46
G1 X26.65 Y323.76
G1 X17.55 Y323.76
G1 X15.60 Y322.46
G1 X11.70 Y322.46
G1 X-3.25 Y327.01
G1 X-2.60 Y321.16
G1 X1.30 Y322.46
G1 X4.55 Y321.81
G1 X7.80 Y336.12
G1 X-2.60 Y341.97
G1 X-13.00 Y345.22
G1 X-9.10 Y348.47
G1 X-3.90 Y347.82
G1 X3.25 Y343.27
G1 X11.05 Y342.62
G1 X16.90 Y341.97
G1 X20.80 Y339.37
G1 X31.20 Y339.37
G1 X26.65 Y341.32
G1 X27.30 Y340.02
G1 X24.70 Y340.67
G1 X23.40 Y340.02
G1 X11.70 Y339.37
G1 X9.75 Y338.07
G1 X14.30 Y338.07
G1 X15.60 Y338.07
G1 X20.15 Y338.07
G1 X11.05 Y332.22
G1 X18.85 Y335.47
G1 X25.35 Y336.77
G1 X22.10 Y334.82
G1 X18.20 Y334.82
G1 X32.50 Y325.71
G1 X39.01 Y327.66
G1 X37.71 Y326.36
G1 X36.41 Y326.36
G1 X30.55 Y327.66
G1 X33.80 Y325.71
G1 X14.95 Y325.71
G1 X7.15 Y324.41
G1 X11.05 Y336.77
G1 X16.25 Y336.12
G1 X11.70 Y333.52
G1 X11.05 Y334.82
G1 X13.65 Y336.12
G1 X11.70 Y336.12
G1 X-1.95 Y341.97
G1 X-1.95 Y344.57
G1 X-5.20 Y344.57
G1 X-2.60 Y343.27
G1 X2.60 Y343.27
G1 X0.65 Y343.92
G1 X0.65 Y344.57
G1 X-0.65 Y343.92
G1 X-0.65 Y344.57
G1 X1.30 Y326.36
G1 X-9.75 Y341.97
G1 X-20.80 Y339.37
G1 X-17.55 Y349.12
G1 X-27.95 Y341.97
G1 X-18.85 Y352.37
G1 X-20.15 Y353.67
G1 X-22.10 Y349.12
G1 X-11.05 Y342.62
G1 X-3.90 Y341.97
G1 X-7.15 Y340.02
G1 X-3.25 Y339.37
G1 X-0.65 Y337.42
G1 X-8.45 Y325.71
G1 X-1.30 Y328.31
G1 X5.85 Y330.92
G1 X6.50 Y336.12
G1 X2.60 Y335.47
G1 X12.35 Y340.02
G1 X9.10 Y340.02
G1 X7.15 Y340.67
G1 X3.90 Y341.32
G1 X3.25 Y340.67
G1 X1.95 Y340.67
G1 X1.95 Y323.76
G1 X3.90 Y324.41
G1 X-2.60 Y324.41
G1 X-4.55 Y321.81
G1 X-7.15 Y323.76
G1 X-8.45 Y319.86
G1 X-9.75 Y322.46
G1 X-12.35 Y324.41
G1 X-14.95 Y325.06
G1 X-14.30 Y326.36
G1 X-18.85 Y328.96
G1 X-18.20 Y329.62
G1 X-16.25 Y330.27
G1 X-14.95 Y332.22
G1 X-18.20 Y331.57
G1 X-19.50 Y332.22
G1 X-18.20 Y345.87
G1 X-11.70 Y342.62
G1 X-9.10 Y345.22
G1 X-11.70 Y345.22
G1 X-11.70 Y326.36
G1 X-13.65 Y328.31
G1 X-14.95 Y328.96
G1 X-4.55 Y333.52
G1 X-11.05 Y323.76
G1 X-6.50 Y321.81
G1 X-7.80 Y320.51
G1 X-8.45 Y321.16
G1 X-12.35 Y317.26
G1 X-17.55 Y316.61
G1 X-14.30 Y317.91
G1 X-11.70 Y318.56
G1 X-15.60 Y315.96
G1 X-31.85 Y314.01
G1 X-27.30 Y310.76
G1 X-27.95 Y312.71
G1 X-26.65 Y310.76
G1 X-27.30 Y314.01
G1 X-28.60 Y314.01
G1 X-33.80 Y310.76
G1 X-37.06 Y313.36
G1 X-38.36 Y313.36
G1 X-40.96 Y314.01
G1 X-39.01 Y314.01
G1 X-56.56 Y314.01
G1 X-58.51 Y315.31
G1 X-55.91 Y315.96
G1 X-55.26 Y315.96
G1 X-46.16 Y310.76
G1 X-53.96 Y313.36
G1 X-56.56 Y313.36
G1 X-61.11 Y310.11
G1 X-63.06 Y310.11
G1 X-63.71 Y309.46
G1 X-60.46 Y306.86
G1 X-61.11 Y308.16
G1 X-62.41 Y299.06
G1 X-60.46 Y297.76
G1 X-55.91 Y302.31
G1 X-54.61 Y301.01
G1 X-55.91 Y301.01
G1 X-52.01 Y297.76
G1 X-60.46 Y293.86
G1 X-61.76 Y293.86
G1 X-59.81 Y295.81
G1 X-57.21 Y295.81
G1 X-52.01 Y295.16
G1 X-57.21 Y291.26
G1 X-61.11 Y297.11
G1 X-61.11 Y297.76
G1 X-58.51 Y300.36
G1 X-60.46 Y301.01
G1 X-59.81 Y304.26
G1 X-59.16 Y302.96
G1 X-58.51 Y304.91
G1 X-59.16 Y305.56
G1 X-59.16 Y304.91
G1 X-68.91 Y304.26
G1 X-71.51 Y306.21
G1 X-73.46 Y304.91
G1 X-72.16 Y304.91
G1 X-81.26 Y310.11
G1 X-78.01 Y310.11
G1 X-77.36 Y311.41
G1 X-74.11 Y310.76
G1 X-71.51 Y308.81
G1 X-70.21 Y310.11
G1 X-72.81 Y311.41
G1 X-70.86 Y312.06
G1 X-71.51 Y312.71
G1 X-72.16 Y312.71
G1 X-75.41 Y314.01
G1 X-78.01 Y315.96
G1 X-87.76 Y318.56
G1 X-85.81 Y315.31
G1 X-88.41 Y314.01
G1 X-91.66 Y314.66
G1 X-89.71 Y312.71
G1 X-88.41 Y312.71
G1 X-86.46 Y313.36
G1 X-83.86 Y316.61
G1 X-86.46 Y317.26
G1 X-87.76 Y315.96
G1 X-83.86 Y315.31
G1 X-83.21 Y316.61
G1 X-79.96 Y321.81
G1 X-78.66 Y319.21
G1 X-85.16 Y321.81
G1 X-87.11 Y327.66
G1 X-89.71 Y328.31
G1 X-90.36 Y327.66
G1 X-88.41 Y326.36
G1 X-94.91 Y326.36
G1 X-98.16 Y323.76
G1 X-109.87 Y326.36
G1 X-115.07 Y313.36
G1 X-115.07 Y312.06
G1 X-115.07 Y311.41
G1 X-105.96 Y311.41
G1 X-110.52 Y298.41
G1 X-110.52 Y300.36
G1 X-109.87 Y302.31
G1 X-105.96 Y304.26
G1 X-105.96 Y302.96
G1 X-100.76 Y305.56
G1 X-98.81 Y305.56
G1 X-97.51 Y304.91
G1 X-100.11 Y304.26
G1 X-102.06 Y306.21
G1 X-105.31 Y306.86
G1 X-105.96 Y305.56
G1 X-109.87 Y306.21
G1 X-109.87 Y304.91
G1 X-107.92 Y304.26
G1 X-107.27 Y302.96
G1 X-107.27 Y299.06
G1 X-107.92 Y298.41
G1 X-107.92 Y297.76
G1 X-106.61 Y297.11
G1 X-103.36 Y298.41
G1 X-103.36 Y299.71
G1 X-105.31 Y302.31
G1 X-102.71 Y302.96
G1 X-101.41 Y295.81
G1 X-102.06 Y297.11
G1 X-103.36 Y294.51
G1 X-102.71 Y293.86
G1 X-102.06 Y293.86
G1 X-100.11 Y293.21
G1 X-100.76 Y297.11
G1 X-100.11 Y298.41
G1 X-99.46 Y296.46
G1 X-98.16 Y293.86
G1 X-98.16 Y291.91
G1 X-96.21 Y294.51
G1 X-95.56 Y297.76
G1 X-96.86 Y295.16
G1 X-96.21 Y297.11
G1 X-98.16 Y294.51
G1 X-99.46 Y292.56
G1 X-98.81 Y286.06
G1 X-97.51 Y285.41
G1 X-94.26 Y284.76
G1 X-86.46 Y286.06
G1 X-85.81 Y286.06
G1 X-86.46 Y286.71
G1 X-89.71 Y281.51
G1 X-87.76 Y280.21
G1 X-77.36 Y282.16
G1 X-79.96 Y279.56
G1 X-81.91 Y280.86
G1 X-79.31 Y280.86
G1 X-78.66 Y279.56
G1 X-79.96 Y280.21
G1 X-78.66 Y278.26
G1 X-77.36 Y281.51
G1 X-78.01 Y280.86
G1 X-79.96 Y282.16
G1 X-82.56 Y281.51
G1 X-88.41 Y282.81
G1 X-87.11 Y282.16
G1 X-88.41 Y282.16
G1 X-83.86 Y278.91
G1 X-89.71 Y280.21
G1 X-91.01 Y281.51
G1 X-94.26 Y284.11
G1 X-93.61 Y284.11
G1 X-91.01 Y287.36
G1 X-94.91 Y286.71
G1 X-94.26 Y286.06
G1 X-93.61 Y285.41
G1 X-92.96 Y285.41
G1 X-92.96 Y286.71
G1 X-92.31 Y286.71
G1 X-78.01 Y294.51
G1 X-78.66 Y291.91
G1 X-74.11 Y289.31
G1 X-74.11 Y289.96
G1 X-75.41 Y288.66
G1 X-76.06 Y287.36
G1 X-76.71 Y286.06
G1 X-77.36 Y286.71
G1 X-79.96 Y287.36
G1 X-79.31 Y288.66
G1 X-81.26 Y290.61
G1 X-81.26 Y293.86
G1 X-84.51 Y294.51
G1 X-82.56 Y293.21
G1 X-86.46 Y293.21
G1 X-87.76 Y294.51
G1 X-87.76 Y293.21
G1 X-84.51 Y290.61
G1 X-84.51 Y289.96
G1 X-87.11 Y291.91
G1 X-87.76 Y291.91
G1 X-87.76 Y291.26
G1 X-87.11 Y291.26
G1 X-85.81 Y291.26
G1 X-85.16 Y291.91
G1 X-83.86 Y291.91
G1 X-74.76 Y303.61
G1 X-74.11 Y302.96
G1 X-72.81 Y302.96
G1 X-66.31 Y299.71
G1 X-62.41 Y304.26
G1 X-62.41 Y302.96
G1 X-63.71 Y301.66
G1 X-65.01 Y300.36
G1 X-63.71 Y295.81
G1 X-63.71 Y298.41
G1 X-62.41 Y301.66
G1 X-63.71 Y302.31
G1 X-64.36 Y302.96
G1 X-66.31 Y300.36
G1 X-67.61 Y301.66
G1 X-66.96 Y303.61
G1 X-68.26 Y301.66
G1 X-70.21 Y303.61
G1 X-70.86 Y299.06
G1 X-72.81 Y301.01
G1 X-72.16 Y299.06
G1 X-72.81 Y297.11
G1 X-73.46 Y295.81
G1 X-73.46 Y296.46
G1 X-74.76 Y297.76
G1 X-75.41 Y301.66
G1 X-74.11 Y299.71
G1 X-79.96 Y286.71
G1 X-78.66 Y284.76
G1 X-75.41 Y284.76
G1 X-70.86 Y289.31
G1 X-75.41 Y292.56
G1 X-73.46 Y293.21
G1 X-72.81 Y292.56
G1 X-72.16 Y291.91
G1 X-72.81 Y291.26
G1 X-73.46 Y290.61
G1 X-89.71 Y288.01
G1 X-91.01 Y292.56
G1 X-91.66 Y295.81
G1 X-91.01 Y298.41
G1 X-92.31 Y298.41
G1 X-92.31 Y299.06
G1 X-91.66 Y299.71
G1 X-91.01 Y301.66
G1 X-92.96 Y301.66
G1 X-95.56 Y303.61
G1 X-96.86 Y302.31
G1 X-99.46 Y302.31
G1 X-97.51 Y303.61
G1 X-96.86 Y302.96
G1 X-91.66 Y304.26
G1 X-90.36 Y304.26
G1 X-89.71 Y303.61
G1 X-89.06 Y303.61
G1 X-85.81 Y304.26
G1 X-85.16 Y304.91
G1 X-84.51 Y304.26
G1 X-81.91 Y304.91
G1 X-81.91 Y302.96
G1 X-78.66 Y300.36
G1 X-78.01 Y300.36
G1 X-77.36 Y299.71
G1 X-75.41 Y299.06
G1 X-77.36 Y298.41
G1 X-76.06 Y297.76
G1 X-77.36 Y297.11
G1 X-76.71 Y296.46
G1 X-77.36 Y295.16
G1 X-78.01 Y295.81
G1 X-79.31 Y294.51
G1 X-79.31 Y295.16
G1 X-79.96 Y296.46
G1 X-79.96 Y295.16
G1 X-84.51 Y297.11
G1 X-85.81 Y297.76
G1 X-88.41 Y299.71
G1 X-89.71 Y299.71
G1 X-92.96 Y300.36
G1 X-100.11 Y317.91
G1 X-99.46 Y317.91
G1 X-98.81 Y318.56
G1 X-91.66 Y317.26
G1 X-91.66 Y317.91
G1 X-91.01 Y321.81
G1 X-91.66 Y320.51
G1 X-90.36 Y318.56
G1 X-87.76 Y317.26
G1 X-89.71 Y316.61
G1 X-90.36 Y317.26
G1 X-94.26 Y311.41
G1 X-92.96 Y310.76
G1 X-92.31 Y310.11
G1 X-90.36 Y310.76
G1 X-87.76 Y309.46
G1 X-89.06 Y308.81
G1 X-89.71 Y306.86
G1 X-88.41 Y306.86
G1 X-87.76 Y307.51
G1 X-83.86 Y307.51
G1 X-83.21 Y306.21
G1 X-79.31 Y306.21
G1 X-79.96 Y304.26
G1 X-76.06 Y304.26
G1 X-84.51 Y297.76
G1 X-87.11 Y294.51
G1 X-90.36 Y297.76
G1 X-90.36 Y295.16
G1 X-89.71 Y292.56
G1 X-89.71 Y291.26
G1 X-104.01 Y289.96
G1 X-104.66 Y291.26
G1 X-108.57 Y295.16
G1 X-109.22 Y296.46
G1 X-105.96 Y295.81
G1 X-107.27 Y294.51
G1 X-106.61 Y293.86
G1 X-106.61 Y293.86
G1 X-100.11 Y299.06
G1 X-99.46 Y297.76
G1 X-98.81 Y299.06
G1 X-96.86 Y298.41
G1 X-97.51 Y297.76
G1 X-98.81 Y295.81
G1 X-100.76 Y294.51
G1 X-100.76 Y293.86
G1 X-102.06 Y292.56
G1 X-102.06 Y291.91
G1 X-102.71 Y291.26
G1 X-102.71 Y291.26
G1 X-100.11 Y286.71
G1 X-95.56 Y286.06
G1 X-96.21 Y287.36
G1 X-97.51 Y286.71
G1 X-98.16 Y288.01
G1 X-100.11 Y287.36
G1 X-98.16 Y289.31
G1 X-98.81 Y289.96
G1 X-98.81 Y289.96
G1 X-80.61 Y284.76
G1 X-79.96 Y291.91
G1 X-79.31 Y293.21
G1 X-78.66 Y293.21
G1 X-79.31 Y292.56
G1 X-77.36 Y288.01
G1 X-76.71 Y289.31
G1 X-76.71 Y286.71
G1 X-68.26 Y289.96
G1 X-64.36 Y293.86
G1 X-66.31 Y292.56
G1 X-66.31 Y293.86
G1 X-68.26 Y291.91
G1 X-66.96 Y299.71
G1 X-67.61 Y298.41
G1 X-66.96 Y297.76
G1 X-63.06 Y301.01
G1 X-69.56 Y319.21
G1 X-71.51 Y318.56
G1 X-72.81 Y319.21
G1 X-72.16 Y319.21
G1 X-81.91 Y314.66
G1 X-85.16 Y314.01
G1 X-83.21 Y309.46
G1 X-85.16 Y310.11
G1 X-85.81 Y309.46
G1 X-86.46 Y309.46
G1 X-76.06 Y309.46
G1 X-78.66 Y312.06
G1 X-79.31 Y312.06
G1 X-92.31 Y311.41
G1 X-94.91 Y308.81
G1 X-96.21 Y309.46
G1 X-97.51 Y308.81
G1 X-96.86 Y308.81
G1 X-104.66 Y311.41
G1 X-105.96 Y309.46
G1 X-104.01 Y310.11
G1 X-109.87 Y315.96
G1 X-111.17 Y314.01
G1 X-111.17 Y315.31
G1 X-112.47 Y317.26
G1 X-113.77 Y313.36
G1 Z0
G1 X46.16 Y308.16
G1 Z1
G1 X41.61 Y308.81
G1 X37.06 Y308.16
G1 X32.50 Y310.11
G1 X25.35 Y309.46
G1 X33.15 Y308.16
G1 X50.71 Y308.16
G1 X48.76 Y306.86
G1 X46.16 Y306.86
G1 X43.56 Y307.51
G1 X39.01 Y307.51
G1 X37.71 Y307.51
G1 X36.41 Y307.51
G1 X25.35 Y310.76
G1 X23.40 Y306.86
G1 X23.40 Y308.81
G1 X31.20 Y308.16
G1 X39.01 Y309.46
G1 X31.20 Y309.46
G1 X19.50 Y306.86
G1 X25.35 Y311.41
G1 X37.06 Y310.11
G1 X42.91 Y309.46
G1 X46.81 Y307.51
G1 X44.86 Y307.51
G1 X61.11 Y305.56
G1 X69.56 Y305.56
G1 X74.76 Y307.51
G1 X76.71 Y306.21
G1 X71.51 Y307.51
G1 X68.91 Y306.21
G1 X66.96 Y306.86
G1 X58.51 Y306.21
G1 X52.01 Y308.16
G1 X53.96 Y306.86
G1 X52.01 Y306.21
G1 X51.36 Y308.16
G1 X50.71 Y307.51
G1 X48.11 Y307.51
G1 X46.81 Y308.81
G1 X45.51 Y308.81
G1 X42.26 Y308.81
G1 X39.66 Y306.86
G1 X42.91 Y306.86
G1 X39.66 Y309.46
G1 X39.01 Y308.81
G1 X37.71 Y308.81
G1 X34.45 Y310.76
G1 X37.06 Y310.76
G1 X24.05 Y306.86
G1 X24.70 Y307.51
G1 X21.45 Y306.86
G1 X18.20 Y312.06
G1 X24.05 Y310.76
G1 X21.45 Y312.06
G1 X20.15 Y308.16
G1 X16.25 Y306.21
G1 X0.65 Y304.91
G1 X-3.90 Y306.21
G1 X-14.95 Y290.61
G1 X-8.45 Y278.91
G1 X-7.80 Y282.81
G1 X-11.70 Y280.86
G1 X-14.30 Y286.71
G1 X-20.80 Y289.31
G1 X-5.20 Y278.26
G1 X-5.85 Y282.81
G1 X-7.80 Y278.91
G1 X-5.85 Y279.56
G1 X-7.15 Y280.86
G1 X-9.10 Y281.51
G1 X-8.45 Y282.16
G1 X-9.75 Y284.11
G1 X-6.50 Y282.81
G1 X-7.15 Y281.51
G1 X-7.15 Y282.16
G1 X-11.70 Y301.01
G1 X-18.85 Y289.31
G1 X-26.65 Y292.56
G1 X-14.95 Y289.96
G1 X-13.00 Y284.76
G1 X-11.70 Y283.46
G1 X-12.35 Y284.76
G1 X-11.05 Y295.16
G1 X-14.30 Y299.71
G1 X-20.15 Y299.06
G1 X-15.60 Y295.81
G1 X-9.75 Y282.81
G1 X-14.95 Y282.81
G1 X-16.90 Y289.96
G1 X-14.95 Y288.66
G1 X-14.95 Y284.11
G1 X-9.10 Y278.91
G1 X-12.35 Y280.21
G1 X-2.60 Y280.86
G1 X-7.15 Y284.76
G1 X-6.50 Y289.96
G1 X-2.60 Y276.96
G1 X-7.15 Y278.26
G1 X-3.90 Y282.81
G1 X-7.15 Y301.01
G1 X-11.05 Y300.36
G1 X-10.40 Y298.41
G1 X-9.10 Y300.36
G1 X-8.45 Y297.76
G1 X-11.05 Y291.26
G1 X-11.05 Y286.71
G1 X-8.45 Y285.41
G1 X-8.45 Y284.11
G1 X-10.40 Y286.06
G1 X-7.15 Y290.61
G1 X-7.15 Y288.01
G1 X-3.90 Y276.96
G1 X-5.20 Y276.96
G1 X-5.85 Y278.26
G1 X-6.50 Y277.61
G1 X3.25 Y280.21
G1 X1.30 Y282.16
G1 X1.30 Y280.21
G1 X2.60 Y281.51
G1 X1.30 Y282.81
G1 X2.60 Y282.81
G1 X3.25 Y280.86
G1 X1.95 Y280.21
G1 X2.60 Y279.56
G1 X-1.95 Y277.61
G1 X-3.90 Y279.56
G1 X-3.90 Y278.91
G1 X-3.25 Y277.61
G1 X-1.30 Y278.26
G1 X-3.25 Y280.21
G1 X-0.65 Y279.56
G1 X-3.25 Y282.16
G1 X-3.90 Y289.31
G1 X-5.20 Y287.36
G1 X-6.50 Y283.46
G1 X-7.15 Y284.11
G1 X-17.55 Y299.71
G1 X-19.50 Y300.36
G1 X-19.50 Y291.91
G1 X-22.75 Y291.26
G1 X-20.80 Y293.21
G1 X-27.95 Y293.21
G1 X-42.26 Y289.31
G1 X-46.16 Y289.96
G1 X-39.66 Y291.26
G1 X-36.41 Y291.26
